/* XPM */
static char *result[] = {
/* columns rows colors chars-per-pixel */
"80 80 217 2 ",
"   c #0A0402",
".  c #180805",
"X  c #270906",
"o  c #240C0A",
"O  c #2E0C0A",
"+  c #380B07",
"@  c #2A100B",
"#  c #35170C",
"$  c #371D1B",
"%  c #2F221F",
"&  c #3C241B",
"*  c #2D2728",
"=  c #3D2525",
"-  c #34292A",
";  c #392B2C",
":  c #392F2F",
">  c #3C3537",
",  c #430D0B",
"<  c #4A0E0B",
"1  c #580F09",
"2  c #4C100C",
"3  c #57110A",
"4  c #461F1E",
"5  c #581311",
"6  c #661209",
"7  c #72140C",
"8  c #79170B",
"9  c #6D1410",
"0  c #442B1A",
"q  c #55221F",
"w  c #7B2B15",
"e  c #623119",
"r  c #472928",
"t  c #562723",
"y  c #473126",
"u  c #573925",
"i  c #412E31",
"p  c #463536",
"a  c #443B3E",
"s  c #4B3C3C",
"d  c #553938",
"f  c #6C3837",
"g  c #56482B",
"h  c #514B33",
"j  c #63482A",
"k  c #63572E",
"l  c #6F583C",
"z  c #586336",
"x  c #616236",
"c  c #6B733C",
"v  c #443E42",
"b  c #493D41",
"n  c #643F41",
"m  c #474245",
"M  c #4B4549",
"N  c #534749",
"B  c #534A4D",
"V  c #535743",
"C  c #4F4B50",
"Z  c #544E53",
"A  c #5A5458",
"S  c #684B4E",
"D  c #665659",
"F  c #5C6B42",
"G  c #6A7341",
"H  c #777547",
"J  c #706450",
"K  c #665F64",
"L  c #6A6467",
"P  c #6B666A",
"I  c #766669",
"U  c #736C72",
"Y  c #787174",
"T  c #88170B",
"R  c #951A0E",
"E  c #881A11",
"W  c #971D12",
"Q  c #AB1E09",
"!  c #B31E0F",
"~  c #A5171A",
"^  c #92230F",
"/  c #AB220C",
"(  c #971E23",
")  c #903C3E",
"_  c #AF383A",
"`  c #C21F11",
"'  c #C3240A",
"]  c #D2350E",
"[  c #C62E17",
"{  c #CD1923",
"}  c #CA272E",
"|  c #E03038",
" . c #AE5A37",
".. c #9B603A",
"X. c #B43D42",
"o. c #F03D44",
"O. c #935E47",
"+. c #B64544",
"@. c #AC5451",
"#. c #846645",
"$. c #906F44",
"%. c #BE744B",
"&. c #9A716E",
"*. c #CC4E59",
"=. c #CE5053",
"-. c #F04C54",
";. c #F6535A",
":. c #D15C63",
">. c #C56869",
",. c #CA6974",
"<. c #DA6C70",
"1. c #C67A79",
"2. c #F8686E",
"3. c #EA757C",
"4. c #FD767B",
"5. c #71853A",
"6. c #758746",
"7. c #799748",
"8. c #799950",
"9. c #76A543",
"0. c #7AA643",
"q. c #77A843",
"w. c #7CAA44",
"e. c #7DB245",
"r. c #87913F",
"t. c #838B48",
"y. c #958D4A",
"u. c #87994D",
"i. c #82AD45",
"p. c #85AE48",
"a. c #88AC49",
"s. c #95AC4C",
"d. c #83B446",
"f. c #8AB547",
"g. c #84BB47",
"h. c #8ABC47",
"j. c #86B248",
"k. c #8BB549",
"l. c #86BC49",
"z. c #8CBB48",
"x. c #91B64A",
"c. c #98B74A",
"v. c #93BC4A",
"b. c #9BBD4D",
"n. c #90AC53",
"m. c #9FBF50",
"M. c #A9B353",
"N. c #C29251",
"B. c #E68256",
"V. c #CAB252",
"C. c #86C147",
"Z. c #88C147",
"A. c #87C348",
"S. c #8BC448",
"D. c #94C44A",
"F. c #9CC54C",
"G. c #95C94B",
"H. c #9CCA4C",
"J. c #98C353",
"K. c #A2C44F",
"L. c #A4CD4E",
"P. c #A8CF4F",
"I. c #A8D04F",
"U. c #A5C451",
"Y. c #ABC652",
"T. c #A4CD50",
"R. c #ACCC52",
"E. c #A9CC5C",
"W. c #B3CD55",
"Q. c #B9CF57",
"!. c #B9CE59",
"~. c #A7D151",
"^. c #ACD251",
"/. c #B3D454",
"(. c #B9D656",
"). c #BCD957",
"_. c #BDD358",
"`. c #BDD958",
"'. c #9AC16B",
"]. c #B1CB6E",
"[. c #C0DA57",
"{. c #C2D65A",
"}. c #C4DB5A",
"|. c #CADD5C",
" X c #D1DF5F",
".X c #CDE05D",
"XX c #D3E25F",
"oX c #D7E460",
"OX c #DAE661",
"+X c #DEE863",
"@X c #837E82",
"#X c #9A8C8D",
"$X c #B98388",
"%X c #BFBCBD",
"&X c #C58283",
"*X c #D58A91",
"=X c #CB9293",
"-X c #FC858A",
";X c #FB8E94",
":X c #FB9598",
">X c #F89BA0",
",X c #E8A7AD",
"<X c #FAA5A9",
"1X c #FAAFB2",
"2X c #E6D796",
"3X c #CCD3BC",
"4X c #D1D9BE",
"5X c #CBCCCA",
"6X c #D2D6CB",
"7X c #D8DAD5",
"8X c #F1DADE",
"9X c #E3E3E5",
"0X c #E8E7E9",
"qX c #EAEAED",
"wX c #EDEEF0",
"eX c #F3F3F5",
"rX c #F6F6F8",
/* pixels */
"I.v.w.D.H.i.9.9.9.q.l.d.w.W..XH.G.L.G.S.L.D.9.9.9.9.f.T.P.P.P.L.I.I./.XXW.w.9.9.9.f.T.~.F.i.f.P.|.+X+X.X~.H.S.A.^.oX[.I.I.I.I.G.A.A.A.A.e.q.9.9.w.v.~.~.v.w.v.I.",
"I.v.w.z.D.d.f.b.x.z.T.F.v._..XT.H.I.^.~.H.F.m.p.9.d.v.T.F.D.H.H.H./..XXX(.d.z.c.w.f.L.H.D.w.k.P.|.oX.X}.)./.L.l.H.).^.H.I.F.D.g.g.e.e.e.q.w.j.x.F.U.I.).U.w.v.I.",
"I.D.w.d.A.A.L.|./.^.|.`.~.}.oX/.~.^.}.}.H.~..Xm.i.F.L.L.k.e.C.S.S.).oXXX(.G._.{.f.f.L.H.A.w.f.L..XXX/.`.XXoX}.f.z.T.H.G.L.v.i.q.w.9.9.9.9.w.F./..X/./..XW.i.v.L.",
"I.K.D.d.e.w.D././.T.F.U.~..XoX.X.X}./.~.S.^.oX^.F.L.~.L.S.g.C.S.G.).XX.X^.T.}..XK.F.L.L.D.g.d.v.(.XX/.`.+X+X|.L.F.T.H.H.L.L.D.v.z.w.9.9.9.d._.}.)./.I.(.L.g.S.G.",
"F.F.F.f.w.w.z.L.K.D.w.f.P.|.OXXXXX+X/.D.A.L..X/.L.L.L.F.D.g.g.g.A.(.XX/.~.^..XXX^.T.T.I.~.H.S.d.P.}.~.).oXXX.X/.I.I.I.I.L.K./.I.H.d.i.j.e.k.|.}.L.L.I.I.H.H.A.l.",
"i.w.i.v.D.A.D.L.v.w.0.j.P.|.XX).}.oXXX`.f.h.I.H.G.L.D.i.w.q.q.0.i.(.XX/.~.^.}.|.x.z.L.~./.}.^.S.D.H.G.^..X.XI.I.I.I.I.K.d.K..XI.S.H.W.{.U.F.|.W.f.D.I.I.(.}.J.w.",
"9.9.9.f.D.D.H.L.D.f.z.D.I.}.XX/.).+X+X Xb.D.L.H.G.L.D.0.9.9.9.9.0.m.W.H.D.F.{.|.v.l.H./.}.oX}.G.S.S.A.L..X/.I.I.I.I.I.H.i.k.Y.D.l.K./.}.H.v.|._.f.D.L.(..XoXT.f.",
"q.q.q.w.j.F.L.~.I.K.I.I.I..X.X/.).XXoX|./.L.I.I.I.L.v.i.w.0.0.0.0.0.w.l.g.i.W.|.H.S.G.`.OXoX}.~.G.S.A.G.L.I.I.L.L.L.K.F.i.w.w.q.d.F.~.T.k.k.}.`.D.S.H..XoXXX/.L.",
"v.z.l.F.Y.x.D.L.I.^..X.X[.(.~.G.H.^.(.).I.I.I.I.K.z.b.Y.x.i.x.f.0.0.0.g.e.w.U.`.`.`.`.XXoX/.~.G.~./.z.v.L.I.K.z.z.d.f.f.v.z.d.z.v.k.D.L.d.i./.).`.`.}.OX.X^.H.G.",
"F.D.A._.|.k.z.H.^.).XX+XXX^.S.S.S.S.H.I.I.I.I.I.H.i.c._.c.i.F.D.w.0.q.d.e.0.D.`.XX+XOXXX`.G.S.S./.[.k.z.L.I.L.x.i.9.9.w.D.D.S.G.v.w.f.L.f.i.K.}.OX+XOX.X/.S.S.A.",
"i.w.w.(..XD.C.G.(.XX+X+XOX^.A.A.G.H.I.I.I.I.I.I.K.e.w.a.i.i.F.v.0.9.9.q.w.w.R.oXOXOXoX(.G.S.S.S.L.^.L.L.I.I.^.}.U.w.9.9.w.g.A.d.i.0.z.F.j.i.{.oX+X+X.X~.G.A.A.A.",
"w.d.x.`..X~.G.H.`.+X+XXX.X~.G.G.I././.L.G.D.H.H.F.z.d.e.d.f.v.f.0.9.0.d.w.9.m.Q.).)..X(.^.~.L.H.L.I.H.H.H.L.^.}.(.m.x.j.e.e.d.f.z.f.z.F.z.z.(.XXOX+XXX/.~.G.G.G.",
"A.S.T.}.|.R.L.I..XXX+XXX^.~.~.~.(..X(.F.d.d.A.S.S.L.H.S.D.F.i.0.0.0.i.F.v.w.w.e.S.G.^.|.oXoX}.K.L.L.S.S.A.H.P.I.).|.(.K.A.e.w.D.P.K.H.Z.h.S.L.).oXOXOXXX}.I.~.L.",
"e.z.L.U.b.z.h.G.H.(.XXXX.X^.I.I.I.~.H.G.D.S.S.S.S.L.L.H.(.(.j.i.z.i.i.(.R.l.e.g.A.G.~.}.+X+X`.v.F.F.g.e.d.D.L.H.H.^.).).x.z.v.(.`.v.d.e.e.e.d.K.).`.`.`./.I.I.I.",
"w.z.K.z.e.w.e.A.S.H..XXX.X/.H.H.H.S.Z.Z.L.F.C.g.Z.L.I.L.}.}.c.v.D.z.x.|.`.G.A.g.C.S.T.`.XXXXY.w.z.F.d.w.k.F.I.H.G.G.[.|.v.v.P.|.|.x.i.f.0.9.e.h.~.^.~.H.L.L.^./.",
"F.L.I.L.G.S.A.S.G.^.XX`.H.G.Z.g.h.F.f.d.K.S.w.q.d.H.H.G.L.(.}.Y.f.x.R.XX}.L.z.q.q.w.p.F././.F.w.g.S.l.H.`.(.^.}.).I.}.XXI.K.I.|..XD.K.).c.w.S.L.~.^.H.G.S.G.(.XX",
"I.I.I.I.L.S.S.G.L.I.[./.H.Z.d.d.D.K.f.w.D.S.d.d.v.L.P.I.I./.XX[.v.F.R.W.R.U.N.%. ...y.b.P.D.z.e.d.g.e.H.[./.I.W.W.I.|.XX}./.L.^./.G.~.oXR.z.K.I.I.L.G.S.S.S.`.+X",
"I.I.I.I.L.G.G.L.L.P.^.I.H.f.e.F.L.L.g.w.g.Z.g.F.L.L.(.|.(./.XX.X^.L.F.f.j.M.1.=X=X*X&.m.K.d.e.C.e.q.w.x.P.I.K.f.z.I.|.+XXX`.G.G.G.Z.~..X/.K.I.I.H.G.S.C.A.S.).+X",
"I.L.P.I.~.).L.z.F.P.P.F.z.d.g.D.G.G.g.e.e.e.d.D.I.I.L.K.K./.XXXX}.K.f.g.l.J.5XwX9XqX3XR.L.h.g.A.g.z.Y.^.P.).(.i.f.P.|.XX}.`.`.`./.g.D./.~.G.L.F.f.e.e.e.w.d.Q.+X",
"L.L.P.L.I.}.Y.d.F./.I.D.f.g.Z.Z.C.C.g.g.q.9.q.v.P.F.z.0.S.(.XXXXXXY.z.J.S.'.5XwX%X0X6XE.D.h.g.g.C.D.}.}./.[.{.a.d.K.(.[././.}.oX|.x.v.L.H.G.L.D.d.q.9.9.9.0.Y.|.",
"i.z.L.G.G.G.G.A./..X^.L.F.D.S.S.g.w.w.q.9.9.q.v.K.f.0.0.v./.XX.X(.).|.|.R.p.6XeX9XwX3Xv.w.w.w.w.q.d.R.^.~.^.P.i.0.i.a.z.L.D.c._..XL.L.L.L.L.I.L.F.d.0.9.9.9.i.a.",
"x.D.L.G.S.A.S.H.}.XX/.I.L.S.l.T.F.z.f.d.f.f.z.F.L.z.d.d.f.K.R.W.P.W.{.XX`.D.6XrXqXeX4Xf.0.7.9.9.k.J.v.F.P.~.L.K.x.0.w.g.D.z.w.Y..X/.L.I.~.L.D.K.W.v.w.i.x.b.i.9.",
"L.L.K.G.C.C.G.I.}.|.^.L.L.f.j.{.}.~.I.L.R.L.H.L.P.P.F.S.f.i.i.z.L.v.c.}.}.E.7XrXqXeX4Xc.i.0.0.w.W.{.k.z.L.I./.XXW.i.d.C.S.f.i.D.I.I.I.I.I.K.i.m.{.m.i.F.(.|.b.9.",
"P.F.z.e.e.e.z.L.U.b.z.z.D.d.j.|.XX|./.^.}.R.x.F.I.I.^.)._.P.Z.S.D.h.h.W.(.].7XeXqXeX7XE.W.F.j.i.W.|.v.z.H./..XXX{.D.Z.S.S.S.D.K.I.I.I.I.I.F.i.i.b.a.i.K.)..XK.9.",
"/.F.i.i.i.9.f.F.f.q.q.e.Z.d.x.|.+XoX(.R.XX(.e.v.L./.}.OXXX.XG.A.A.S.G.L.I.].0XeX9XeX9X].{.Y.k.w.T..X~.G.H.}.OX.X).L.D.g.C.D.L.I.I.F.F.F.F.F.i.w.w.w.i.F./.|.K.w.",
"XX[.L.F.D.w.f.K.f.q.g.C.Z.D.R.XX+XoXU.x.|._.z.A.H.}.oXOX.XI.S.A.S.G.L.L.I.t.#XY y k J 8.a.i.w.0.J./..X.X.XoXXX~.G.S.d.w.0.h.L.I.K.d.d.w.i.d.D.D.z.D.D.d.v.^.L.F.",
"|.}.).^.L.z.v.L.f.q.e.e.g.z.F.).}.}.v.j.(.(.^.~./.oX.X`.I.G.S.g.g.F.I.I.F.g &.b # 8 w c e.j.d.w.F.}.oX+X+X.X/.G.Z.S.h.f.f.D.L.I.R.K.k.0.9.q.z.D.S.~./.p.f.L.P.I.",
"I.[.XX).I.L.L.F.f.q.w.w.q.q.f.K.^.P.k.i.L.}.oXoXoXoX).G.S.S.S.g.w.D.I.I.x.y I S 2 6 T k S.K.v.d.W.OXOXOXoX~.S.C.Z.Z.H.L.L.L.L.L.R.}.W.i.9.9.q.d.S./.{.k.z.K.P.^.",
"I.[.XX|.I.I.F.z.g.z.T.m.0.j.D.L.I.L.j.p.(.XX+X+XoX/.H.A.A.S.G.G.D.L.P.P.t.0 s 4 T ' ] e j.).~.S._.oX}.).(.H.A.e.e.d.R.(.v.f.f.f.v./.R.D.A.e.e.g.d.T.(.W.U.z.R.|.",
"P.).XX|.^.L.v.w.g.G..X!.k.D.I.I.I.L.z.z.|.oXXXXX.XG.A.C.A.A.H.K.L.K.F.F.k p p = 1 Q ' w 6.}.(.G./..X^.~.I.L.G.d.w.j.R._.i.0.q.w.d.H.L.F.S.S.S.e.w.v./..X!.x.`.+X",
"I.).XXXX}.x.d.g.A.H..X}.T.T.P.I.H.S.A.D.|.|.(./.~.S.e.e.w.w.d.f.Z.d.i.7.0 B v b , T Q ^ h H.L.S.L.^.I.I.I.`.}.Y.F.H.H.D.w.e.g.D.K.I.D.d.A.A.S.e.w.v.P.^._.|. X+X",
"I.[.XXXX[.Y.K.L.S.z._.(.H.T.K.F.h.g.g.G.`.).I.I.~.~.H.z.j.j.e.e.g.d.k.5.$ K b N O 6 T / = v.L.G.H.H.H.L.I./.).`.R.D.z.A.l.z.G.L.I.T.v.w.e.z.T.v.w.f.F./.|.OX{.Q.",
"L.(.XX[./.}.XX XK.d.K.H.G.H.K.j.i.w.g.S.L.I.I.I./.|.`.P.L.F.S.d.w.v.T.k % P C B X 3 9 R & u.T.~.H.G.A.D.L.G.H..X~.d.g.D.H.L.I.I.^.I.v.w.w.c.{.Q.p.q.k.{.XXXXU.w.",
"k.F.).^.P.K.W.XX/.D.L.L.H.L.~.R.W.W.T.H.G.G.G.L.I.^./.}.K.z.Z.S.D.L.U.u : U Z B . + < 7 0 z U.}.`.^.z.l.G.S.S.I.G.g.D.H.L.I.I.).`.H.g.w.c._.oX|.W.v.z.(.(.~.S.g.",
"i.z.H.L.D.i.b.|.(.L.I.I.L.L.R.oXoX|./.L.S.C.C.D.H.S.~.}.F.i.A.G.L.I.c.$ > U K M     . @ - V J..XoX|.j.e.S.A.A.A.C.g.D.H.I.I.I..X.XJ.z.k.W.oXoX+XoX^.G.H.H.S.S.S.",
"L.F.G.S.z.q.k./.I.I.I.I.I.x.x.|._.c.F.L.S.g.w.g.S.S.S.F.S.S.H.~.P.I.M. .:.<.<._ ( ( ) ) @.O.D./.|.|.k.d.H.G.S.A.g.w.w.d.F.I.I..X{.k.m.`.^.~.oXOXOX(.~.~.H.S.H.L.",
"P.H.S.S.S.z.D.L.I.I.I.I.L.f.i.Y.m.w.c.~.~.v.w.z.G.S.S.S.g.g.z.F.T.~.V.;.<X;X4.-.-.,.:.,.1.@.H.^.|.|.b.h.H.S.A.A.g.d.v.K./.[.}.XXXXY.Y.(.H.H.XXXX.X/.I.I.G.g.L.`.",
"L.F.S.S.S.H.L.L.I.L.L.L.H.f.0.w.w.w.v./..XW.d.v.H.S.A.A.e.9.w.c.~.^.V.2.<X1X<X3.*X*.X.,.>.+.I.I.}. X/.F.S.Z.C.C.C.S./.XXXXXX+XXXXXXX/.G.S.G.|.}.^.~.I.I.D.f.W.XX",
"G.I./.D.d.K.~.T.D.f.f.f.f.v.z.g.g.D.L./.XX`.D.D.S.A.A.A.e.i.U.(.|.|.V.;X-X:X<X3.*X,.,.&XN.X.P.I.(.).I.D.d.e.e.e.g.Z.I.).)..XXXXX/.U.D.A.g.l.^./.I.H.H.L.R.W.(.).",
"S.~.|.F.e.F.L.F.f.w.w.w.e.x.H.G.G.I.K.L.|.[.I.G.C.g.C.g.e.f.}.XXXXoX2X-X4.<X>X-.:.*.*.&X,.X.L.I.P.P.I.D.w.q.w.w.g.S.H.I./.[..X(.K.j.d.C.d.d.H.L.H.H.H.L.)..X}./.",
"L.I.^.F.C.S.A.d.v.D.A.S.F.k.d.F.L.L.v.f.T.^.L.z.0.0.q.w.e.S.I./.(..X2X8X1X-X2.o.{ { } >.&X$XH.I.I.I.I.H.g.C.h.H.K.L.L./..X.XI.I.L.L.G.S.D.H.G.g.d.R..XI.I./..XXX",
"I.I.L.S.d.e.w.w.v.T.G.S.G.v.h.K.P.P.K.K.L./.(.Y.c.i.w.f.S.H.L./.).}.B.,X:X<X:X2.| { } =.=.@.E.I.I.I.I.I.I.H.G.L.I.I./..XXX.XH.H.H.L.F.g.S.G.S.g.z.^.).~.L.I./.`.",
"I.I.L.f.9.9.q.w.D.H.S.S.G.F.T.R.I.I.}..X/.).XXoX[.x.z.L.L.I.I.).XX).$.@.<.3.<._ ~ ~ ( ) @.f !.~.I.I.I./..X(.L.I.I.I..XXXXX).G.S.S.L.v.w.h.G.S.H.P.^.I.G.G.I.G.S.",
"I.L.G.e.9.0.i.z.D.G.S.H./.F.v.`./.H.}.oX.XXX+X+X XL.F.L.I./.[.XXoXR.z * I @XU >   . o 5 f : n.G.H.L.G.I././.I.I.I.I.|.XX.XI.S.A.S.D.h.w.K.(.).[.}.|..X[.I.G.S.S.",
"/.L.Z.g.i.i.v.L.G.g.g.F._.c.p._.R.S.`.+X+X+X+XXX.XI.L.I.I./..X.X}.^.z * D P Z C . . o + $ - n.G.H.L.S.S.F.F.L.L.I.I.[.|.L.D.C.g.g.g.g.d.R.XXXXXX+XXXXX.XP.D.C.g.",
"XX/.S.G.H.F.L.L.z.w.q.e.j.w.0.a.p.d.W.+X+X+XoX/.G.S.G.I.[..X~.H.H.`.H - Z P C v . o o # $ - J.T.I.H.d.w.w.i.d.K.I.I.^.P.z.w.w.q.q.w.e.h.H././..XXX}.R.v.h.C.e.q.",
"+X[.F.L.P.P.^.(.F.f.k.k.k.c.J.m.x.j.T.`.).`.).F.g.d.S.I.).[.).^./..Xu.; C P m v . O + 3 4 - z.v.v.v.f.d.e.d.k.z.F.P.I.F.i.9.9.9.q.d.S.G.L.I.(.[.[./.K.v.g.Z.g.f.",
"XX}.P.L.L.L.(.XX`.T.T.T.T.`..X.X(.S.S.S.S.D.S.g.w.w.h.I.I.).XXXXOXoXM.; m P m v X , < 7 t > w.0.q.i.F.D.Z.F.F.d.k.L.P.F.f.i.q.q.i.F.P.I.I./.XX.XI.I.L.I.H.D.H.L.",
"U.v.k.D.D.z.Y. XXX[.I.I.I.I.^.^.L.H.S.C.A.S.H.D.D.v.F.P.)..XXX+XoX`.s.= v P v b X 3 6 E q h c.0.9.0.d.z.Z.z.f.q.k.L.P.P.W.Q.W.m.D.P.P.I.[..XXX[.F.G.H.L./.(.L.G.",
"9.9.q.g.A.k.W.OX+XXX).^.I.H.S.S.H.L.G.g.C.G.L.I.L.L.L.L..XXXXXXXoXY.0.r a P v b O 6 7 W t G W.d.q.9.9.w.g.d.i.a.v.K.P.[.XXOX|./.I.I.P.P.).|.|.W.S.S.D.F.(.XXI.G.",
"q.w.g.C.D.`. X+X+X+XXX[.I.L.~.L.L.L.z.0.w.h.L.I.L.f.f.D.).XX)./.^.H.w.p > U v v + 8 8 ~ q G P.F.f.0.0.0.w.v.P.[.P.k.W.XXOX{.c.F.P.I.I.L.c.x.x.a.i.v.H.f.P.XX/.L.",
"d.e.g.e.z.Y.`.}.|.|.|.).I.I.^.(.W.D.f.z.v.K.I.L.D.d.g.S.I..XI.I.~.~.c.n > P i p , E R ! t G L.v.i.0.f.i.0.v.P.W.Y.K.{.OX|._.K.c.D.L.I.I.K.b.i.0.e.D.D.w.c.[./.I.",
"C.g.e.w.0.w.v.I.I.I.~.~.I.I./.XX^.d.v.I.}.[.L.G.S.Z.Z.S.F.I.L.L.~.}.{.l i K : i < R R ! t t.v.w.0.i.K.z.i.z.K.k.Y. XXX|.W.).|.m.d.H.L.^.}.{.f.e.C.Z.h.i.h.P.I.I.",
"C.F.Y.x.w.z.F.L.I.I.G.G.H./..XOX(.h.h.L.(.P.h.h.S.G.S.d.S.G.G.H.L.K.Y.$.: K = i 6 ! ! [ t s.v.q.5.f.(.Y.0.i.v.Y.{.OXQ.b.k.P. XY.g.D.~.|.XX|.x.i.C.S.Z.D.F.P.I.I.",
"A.~..XU.j.H.I.I.~.H.G.A.G.).OXXX).H.G.S.L.D.i.g.G.L.D.0.d.g.C.D.F.l.k.#.> L r n T ` ` ] d s.v.0.z.b. X{.x.i.f.}. X}.b.w.9.b.}./.H.G.).XXXX{.f.d.g.C.Z.H.I.P.L.H.",
"S.^.XX/.K.I.I.L.H.S.A.A.S.).XX).)..X/.L.P.F.Z.D.L.L.D.0.0.0.0.w.i.j.k.#.> &.d S 9 ~ ! [ d u.v.i.P. XXX X{.K.S.~.P.H.S.g.q.f./.}..XXXXXXX/.D.h.g.w.q.i.L.I.L.x.w.",
"d.H.`.I.H.L.L.v.C.e.d.e.g.(.XX/././.P.v.v.h.h.S.H.H.f.i.c.c.i.w.f.h.a.n b Y p D 5 7 E ~ p G F.m.I..XXX+XXX^.G.L.H.S.g.d.0.x.(.XX+X+XXX).H.S.C.Z.f.f.h.L.I.P.K.b.",
"w.h.I.H.G.L.v.w.q.e.q.q.d.Y..X/.H.S.f.i.i.i.0.g.Z.S.g.a.W.{.f.f.F.G.7.d M Y b D < 6 7 E = V U.{.~.H.XXXXXX).I.I.H.Z.d.0.9.F.XXXXXXXX.XS.A.A.C.D.L.K.L.L.P.P.[. X",
"D.F.I.L.H.L.v.i.z.z.w.w.d.z.F.D.D.Z.D.h.i.5.i.0.e.e.f.D.{.|.K.D.G.S.x s A Y b D + 2 3 5 $ > E.^.G.H..X.X.X^.I.I.D.i.w.0.d.K.XX.X).).I.A.g.e.e.d.f.f.f.f.f.x.P.[.",
"I.L.I.I.L.F.v.c.F.F.d.d.A.e.w.l.S.S.H.K.i.i.f.f.i.w.x.P.}.}.P.D.g.l.h : P U M C O < 5 5 % : T.S.A.G..X[.^.L.L.I.F.k.a.d.Z.I.|.).I.I.L.G.g.e.w.w.i.0.0.9.0.i.D.I.",
"I.I.I.I.K.f.F.{./.I.K.D.A.e.q.g.D.L.L.L.f.c.{./.F.L.L.L.^.R.k.w.q.0.s * K P M b @ + 2 2 % - a.C.e.d.L.^.L.G.G.I./.[.W.F.S.H.I.I.L.I./..X^.K.F.D.g.w.0.0.f.K.L.I.",
"I.I.I.I.H.w.k.Y.K.D.L.G.d.w.q.e.D.I./.I.f.m. X.X(.I.I.I.I.L.z.d.j.i.h s I I A ; X @ @ $ ; - 8.d.g.z.L.~.I.G.S.G.^.[.P.v.G.H.H.H.L.L./.).)./.F.S.Z.h.f.f.c.P.I.I.",
"L.T.L.L.F.i.q.w.w.d.F.v.w.w.q.q.x.I.|.{.s.b.XX+XXX/.I.I.~.L.S.G.T.D.F B L D S 0 # # & 0 : s 0.w.h.L.I.I.I.G.S.S.F.P.v.f.F.H.S.S.S.L.H.G.(.[.f.d.Z.H.L.L.P.P.P.L.",
"f.f.f.f.z.x.z.g.z.v.f.i.9.j.z.w.c.}.XX|.x.m.XX+XXX.X).I.~.~.H.^.}.^.v.u.H l j j u g j g z 6.w.q.z.H.L.I.L.G.S.G.L.L.S.h.L.D.e.e.i.f.h.S.H.L.h.h.H.L.I.I./.[.K.f.",
"j.p.9.9.w.D.D.S.H.T.p.w.w.F.K.v.Y.OX+X|.k.m.|.XXXXXX[.I.I.I./.(.[.^.L.K.K.L._.{.K.v.h.g.g.w.0.i.h.G.L.I.I.D.h.F.L.L.D.g.F.D.f.0.0.i.d.Z.Z.C.C.S.K.L.I.I.}.XXm.i.",
"|.U.w.9.9.w.d.S.(._.j.j.H.K.^.}.XX+XOX|.f.k.W././././.I.I./.|./.x.i.i.i.f.D.[.XX/.F.Z.Z.g.w.f.F.H.L.L.P.L.h.i.i.x.K.h.i.i.b.[.c.0.c.G.Z.S.C.e.0.i.D./..XXXXXm.0.",
"|.W.z.f.f.m.v.z.R.}.U.b.D.R.}.oX+X+X|.W.v.D.K.F.D.H.H.H./.|.XX(.d.e.i.f.f.g.L./.F.h.g.g.h.c.b.v.D.v.L.P.I.h.i.d.F.(.c.i.f.R. XY.h.G.G.Z.C.g.0.d.K./..XXX+X+X{.m.",
"R.L.K.L.R.}.R.i.D./.|.Q.k.Q.oX+XoXXX^.D.L.L.I.z.i.h.S.S.).XXXX).G.Z.S.L.S.i.h.h.e.0.9.9.x.{.W.f.i.f.L.L.L.S.C.Z.I.|.b.i.F.(.XX[.L.D.Z.C.C.g.w.b..XXXXXXX+XXX X X",
"R.F.z.F.T.U.k.w.v./.oX|./..XXX.X/.^.L.H.I.I.L.D.g.C.S.S.).XX|.).).I.L.L.L.D.F.H.D.f.0.w.D.|.(.h.h.D.L.H.G.S.S.H.(..XW.F.L./.[.[.(.f.e.e.e.e.e.H.(.)..XXX X[.P.b.",
"~.v.w.k.F.k.i.0.z.^..X+X+XOXXX^.H.S.H.I.I.L.F.D.g.C.g.h.).XX/.(.[./.L.L.L.I.L.I.P.D.f.g.H.[./.S.F.L.L.D.Z.g.Z.L.(.[.R.L.L.I.^.|.|.b.i.0.e.i.S.G.L././..X}.P.z.i.",
"~.v.0.i.x.!.U.0.w.x.|.+X+X+X.XL.S.S.H.I.I.D.i.q.q.w.0.i.(.XX/.L.G.h.f.K.I.I.I.I.P.L.K.D.G.I.F.i.D.L.f.w.0.0.d.H.F.f.i.f.L.I.^.|.XXXX(.L.H.L.L.L.I.[..X).^.P.L.F.",
"I.v.w.x.Y. X{.U.j.z.`.}.).`./.H.S.l.D.I.I.D.0.9.9.9.0.0.b.P.H.G.Z.i.i.L././.^.L.F.D.H.S.S.L.F.v.P.R.i.9.9.9.i.h.f.0.0.g.D.D.c.[.+X+X|.I.I.I.(.).).XXXXI.H.F.L.I.",
"L.v.j.R.oXoXOXoXT.S.T.T.G.S.G.L.v.d.v.P.L.b.i.0.9.0.0.0.i.d.C.S.Z.d.d.L.). X(.F.i.d.C.C.S.L.L.L.[.{.c.i.0.0.0.i.r.0.d.Z.Z.g.i.W.XXXX.XI.I./..XXXXXXX.XH.S.S.G.P.",
"f.F.R.W./.oX+XoX(.H.~.H.S.G.H.I.L.v.L.L.v.b.Y.c.w.z.f.0.5.e.C.S.H.D.K.).[.(.K.d.0.0.e.e.g.H.L.G.K.m.W.c.i.f.f.i.q.q.q.e.e.0.0.L.}.[.(.I.I./.XXXX[.I.F.S.g.e.d.f.",
"i.F.}.T.G.}..X{.(.L.H.H.G.D.H.L.L.P.K.D.w.v.{.c.i.L.v.0.9.q.g.D.L./.(.}._.K.i.0.0.w.w.q.i.F.L.H.f.c.|.{.f.F.H.i.i.i.d.i.0.0.i.D.L.K.L.L.H./..X.XI.z.e.g.g.9.i.i.",
"F.H.H.S.S.G.D.k.F.L.G.G.F.z.f.L.I.L.z.w.0.w.i.i.i.F.v.i.9.9.q.z.P.[.}.c.f.i.0.0.g.C.g.w.i.K.(.}.W.P. X{.L.P.F.i.i.h.P./.f.i.F.L.L.f.h.S.S.H..X.XI.S.C.A.d.0.x.F.",
"R.H.S.g.e.e.d.f.D.G.S.H./.H.z.K.L.F.F.b.z.d.i.d.f.v.f.0.i.d.0.v.).XX|.s.w.i.e.e.d.e.g.g.v.K.^.W.P./.XXXX[.L.h.f.d.Z.)..XF.h.I.I.L.d.g.C.Z.G././.I.I.T.l.z.m.b.b.",
"~.H.D.g.w.w.z.F.G.A.A.~..X/.L.R.H.G.).|.P.D.Z.D.F.i.0.i.v.F.f.K.XX+X|.x.d.g.S.h.i.w.w.v.L.L.D.i.c./.XXXX|.K.i.C.Z.D.)..XI.I.L.I.H.D.S.Z.S.S.S.L.^.}.{.f.b.{.F.w.",
"~././.K.S.g.d.g.g.A.A.L./.F.v._.^.D.).|.b.h.Z.h.f.0.i.v.K.P.W.{.+X+X|.S.d.d.L.).W.Y.D.D.G.G.g.w.D.I.[.[.(.F.d.Z.S.L.^./.L.G.G.h.h.G.G.S.G.L./..X|.}./.S.D.T.D.g.",
"~.).oX).L.S.e.w.g.A.A.G.L.f.k.|.`.G.}.}.f.e.g.i.0.9.f.L.I.(.XX+X+XXX XH.d.i._.+XXX|.I.G.A.A.g.w.v.I.I.I.P.G.Z.Z.G.L.I.L.S.S.Z.e.i.F.H.Z.H./..XXXXX[.L.S.S.A.A.A."
};
