/* XPM */
static char *result[] = {
/* columns rows colors chars-per-pixel */
"80 80 202 2 ",
"   c #070605",
".  c #0B0B0A",
"X  c #110A07",
"o  c #110E0D",
"O  c #0F120B",
"+  c #111509",
"@  c #151413",
"#  c #191716",
"$  c #171815",
"%  c #191916",
"&  c #1D1D1C",
"*  c #22130E",
"=  c #281915",
"-  c #351E15",
";  c #212B13",
":  c #21211F",
">  c #3D231B",
",  c #273217",
"<  c #201F20",
"1  c #252425",
"2  c #282626",
"3  c #292A26",
"4  c #2D2C2C",
"5  c #382D2A",
"6  c #312F31",
"7  c #343333",
"8  c #383637",
"9  c #3E3D3E",
"0  c #43251B",
"q  c #4B291E",
"w  c #432A21",
"e  c #4D2C21",
"r  c #522F24",
"t  c #5F3A23",
"y  c #57352A",
"u  c #5E3A2E",
"i  c #483834",
"p  c #5E3C31",
"a  c #603A24",
"s  c #603B2F",
"d  c #384C1E",
"f  c #3C511F",
"g  c #364426",
"h  c #3E5220",
"j  c #435521",
"k  c #485823",
"l  c #4C5B24",
"z  c #525D26",
"x  c #464C38",
"c  c #485433",
"v  c #7B5226",
"b  c #7D5328",
"n  c #674439",
"m  c #6C453A",
"M  c #70493D",
"N  c #7D5338",
"B  c #4B682A",
"V  c #5A652A",
"C  c #59732D",
"Z  c #5D7C31",
"A  c #413E41",
"S  c #454445",
"D  c #4A474A",
"F  c #4C4A4C",
"G  c #57524D",
"H  c #514E51",
"J  c #545254",
"K  c #5D5354",
"L  c #595659",
"P  c #5C5B5D",
"I  c #654E48",
"U  c #764E42",
"Y  c #69524D",
"T  c #7A5245",
"R  c #715148",
"E  c #665856",
"W  c #785D56",
"Q  c #576447",
"!  c #616A43",
"~  c #7C615A",
"^  c #615E61",
"/  c #636263",
"(  c #696768",
")  c #6C6B6C",
"_  c #796B69",
"`  c #71736A",
"'  c #706F70",
"]  c #747274",
"[  c #797779",
"{  c #7C7C7C",
"}  c #8B5F2B",
"|  c #9B6D37",
" . c #9C6E38",
".. c #815749",
"X. c #82594B",
"o. c #895F51",
"O. c #966A49",
"+. c #9E7043",
"@. c #9E704A",
"#. c #8B6052",
"$. c #8B665C",
"%. c #8A675D",
"&. c #986B55",
"*. c #956A5D",
"=. c #9A6D5F",
"-. c #9E7052",
";. c #9C6F61",
":. c #9D7062",
">. c #9C776C",
",. c #917B75",
"<. c #A37262",
"1. c #AA7665",
"2. c #AF7866",
"3. c #B57B67",
"4. c #A37D72",
"5. c #678737",
"6. c #638935",
"7. c #70883A",
"8. c #699637",
"9. c #6A9538",
"0. c #739B3A",
"q. c #7B9C3B",
"w. c #77A63E",
"e. c #76A543",
"r. c #79A643",
"t. c #77A843",
"y. c #7CAB44",
"u. c #7DB245",
"i. c #81A13D",
"p. c #8AA33F",
"a. c #8C9D42",
"s. c #82AD46",
"d. c #89A943",
"f. c #85AE48",
"g. c #97A846",
"h. c #83B446",
"j. c #8AB547",
"k. c #84BB47",
"l. c #8BBC47",
"z. c #87B248",
"x. c #8BB548",
"c. c #87BB48",
"v. c #8CBB49",
"b. c #91B64A",
"n. c #93BC4A",
"m. c #9BBD4E",
"M. c #9FBF50",
"N. c #A3AE4A",
"B. c #A7B44C",
"V. c #B2B64F",
"C. c #86C147",
"Z. c #88C147",
"A. c #8BC448",
"S. c #94C44A",
"D. c #9CC54C",
"F. c #95C94B",
"G. c #9CCA4C",
"H. c #A1C34F",
"J. c #A4CD4E",
"K. c #A8CE4F",
"L. c #A8D04F",
"P. c #A5C451",
"I. c #ACC753",
"U. c #A4CD50",
"Y. c #ACCC52",
"T. c #B3CE55",
"R. c #B9CF57",
"E. c #A7D151",
"W. c #ACD251",
"Q. c #B4D554",
"!. c #B9D556",
"~. c #BCD956",
"^. c #BDD458",
"/. c #BDD958",
"(. c #C0DA57",
"). c #C3D65A",
"_. c #C4DB5A",
"`. c #CADD5C",
"'. c #D2DF5F",
"]. c #CDE05D",
"[. c #D3E25F",
"{. c #D6E460",
"}. c #DAE661",
"|. c #DEE863",
" X c #7E7E80",
".X c #807F80",
"XX c #838383",
"oX c #8B8B8B",
"OX c #938E8D",
"+X c #949494",
"@X c #989698",
"#X c #9D9C9D",
"$X c #A19EA1",
"%X c #A2A2A2",
"&X c #A8A7A8",
"*X c #ACABAC",
"=X c #B8A4A0",
"-X c #B1AFB1",
";X c #B5B3B5",
":X c #BAB8BA",
">X c #C2BEC1",
",X c #C6C3C6",
/* pixels */
"L.n.y.S.D.h.e.e.e.t.k.h.y.T.].G.F.U.F.F.G.S.e.e.e.e.j.U.U.L.L.J.L.L.W.[.Q.y.e.e.e.z.J.L.G.s.j.J.`.|.|.].L.F.A.A.W.[.~.L.L.L.U.F.C.A.A.A.u.e.e.e.e.n.E.E.n.y.n.L.",
"L.n.y.v.S.h.x.m.b.v.U.D.n.^.].E.G.L.E.E.G.D.M.f.e.z.S.H.D.S.G.G.G.Q.].[.Q.z.b.m.y.z.J.H.S.y.j.J.`.[.]._._.~.J.k.D./.L.G.L.J.S.k.k.u.u.u.t.t.z.v.H.P.W./.H.y.n.L.",
"K.S.y.h.Z.C.J.`.Q.W.`.^.W._.{.W.W.W.(._.F.E._.H.s.D.J.J.l.u.C.A.F.~.}.}./.F.R.).x.v.J.S.Z.y.j.K.].[.!.~.[.[._.b.v.U.G.F.K.S.y.y.y.e.e.e.t.y.D.^.`.~.W.].T.s.n.E.",
"K.D.S.h.y.u.S.Q.Q.U.D.P.W.].}.].]._.Q.E.F.W.{.Y.S.J.L.L.F.u.C.C.A.~.{._.W.D.^.`.H.S.H.G.S.h.h.n.!.[.Q.~.|.[.'.H.G.J.J.G.K.H.S.n.v.y.e.e.e.z.Q._.~.W.W.~.U.k.A.F.",
"D.H.D.v.y.y.v.J.J.S.y.x.J.`.}.[.[.[.~.F.Z.J.].Q.J.L.J.D.v.k.k.k.v.M.N.d.7.7 4 3 < % 7 6 8 c 5.5.d.`.E./.{.{.`.Q.L.L.L.L.G.J.W.K.G.h.s.f.s.x.`.(.J.J.L.L.J.F.A.k.",
"h.y.y.n.S.Z.S.J.b.y.e.j.U.].[.~.`.|.[.~.j.l.L.G.F.J.S.s.y.y.y.e.B ! P @ 1 ;X$XXX( P ,X#X:X X1 . Q C e.W.{._.W.K.L.L.L.H.h.H.`.L.S.D.Y._.G.D.`.R.z.S.L.E.!._.S.y.",
"e.e.e.j.S.S.G.J.S.z.j.S.L._.[.Q.~.[.|.'.D.n.J.G.F.L.n.r.e.e.B d [ OX-X' @ ( ( H A 8 { F ] / 8 . ;XL g k /.Q.K.K.L.L.L.H.s.b.I.n.l.G.!./.H.S.`.^.j.Z.J.!.].{.U.x.",
"r.e.e.y.z.D.J.K.J.J.L.L.L.].].Q.!.[.}.`.Q.J.L.L.J.J.S.s.5.; + { >X$X{ P   @ @ @ o . @ O @ 4 < ,.;XP D i , Z J.J.J.J.J.S.s.t.s.y.u.D.E.Y.x.z._.~.S.F.G.].{.{.Q.H.",
"n.l.h.P.I.b.S.L.L.Q._.]._.~.E.F.G.W.~.~.L.L.L.L.U.v.d.x J >XJ / .XD A # * u u y e s u u y w X 8 D H D A F { @ Z h.v.x.x.v.v.k.v.n.j.S.J.j.s.Y.~././._.{.].W.G.F.",
"D.S.A.^.`.x.v.D.L.!.[.|.[.W.A.A.A.A.G.E.L.L.L.L.G.5.x $X:X$XD . 4 2 * s T :.;.=.s :.;.;.;.o.y = * 6 @ S ;X{ J 4 C e.e.y.S.S.A.S.m.y.j.D.j.s.J.`.}.|.}.[.Q.A.A.A.",
"y.y.y.Q.].S.Z.F.~.[.|.|.{.E.A.A.F.G.J.L.L.L.L.L.f.; / #X] / 8 . = - s *.;.;.;.=.s :.;.;.;.;.m U n = X S @X^ H H O C e.e.y.h.Z.h.s.w.z.J.j.f.).[.|.|.].E.F.C.C.A.",
"u.h.v.^.].E.F.G./.|.|.[.].E.F.F.L.~.L.J.F.S.G.S.x / #  XA @ - - o.M T ;.;.;.;.=.s :.1.:.;.;.m o.*.o.u 0 < 4 H < 1 ` Z s.u.u.h.j.j.j.n.F.k.v.!.[.}.|.[.Q.J.F.F.F.",
"C.S.U.(.`.W.J.L.].[.|.].W.E.E.E.!.].!.G.z.h.t., #X:XJ   * u X.;.;.T T =.#.:.=.=.s ;.2.<.;.;.m o.;.;.;.u u >   2 ;X-XE 7.A.h.u.n.J.K.S.A.k.A.J.~.{.{.{.{./.W.U.U.",
"u.v.J.P.m.v.v.F.G.~.[.[.].W.L.L.L.E.G.F.S.0.Q S ] / A = u <.;.;.;.T T =.a -.;.;.u ;.2.<.;.;.M o.<.;.;.u *.o.w / ] F ' 8 Z j.n.Q.^.m.h.u.u.h.h.D.~./././.Q.E.L.L.",
"s.l.J.v.u.t.u.C.A.G.].[.].Q.G.G.S.S.C.A.D.C [ @X) 8 = n s ;.;.;.=.T T =.a +.;.;.u :.2.<.;.;.m o.3.;.;.s ;.;.o.> 1 1 1 : ; n.L.`.`.b.f.f.y.r.w.S.E.E.E.E.U.E.E.Q.",
"G.J.E.H.F.A.C.A.G.W.]._.G.F.A.h.v.G.l.h.i.F &X*XoX4 = #.p :.;.;.;.T T =.a +.;.;.u :.2.<.;.;.m o.3.;.;.s ;.;.;.y   S #X#X( C L.`.].S.H.^.n.y.S.G.E.E.G.F.A.F.!.{.",
"K.L.L.L.G.A.A.F.J.L._.Q.G.l.h.h.S.J.j.t.5.4 @ / ] 7 - o.u ;.:.;.=.T T =.a +.=.=.s :.2.<.;.;.m #.2.;.;.s =.;.;.u 5 @XoXoXD j x.Y.Q.F.W.{.U.v.J.L.K.G.G.A.A.A./.|.",
"L.L.L.L.J.F.F.J.K.K.L.L.G.v.h.S.J.J.h.w.7 ,X] 3 2 w u $.s ;.2.<.;.T T =.a +.;.=.s ;.1.:.;.;.m #.;.;.;.u ;.;.;.u - < H 7 4 < C S.A.Z.E.].!.J.L.J.J.S.C.C.C.A./.|.",
"L.L.L.L.W.!.J.n.S.K.K.D.j.h.k.S.S.F.k.B XX;X*X^ < r o.;.s ;.2.<.=.T T ;...-.;.=.s ;.;.;.;.;.m #.;.;.;.p ;.;.;.s m = 2 . [ L g B.T.v.S.Q.U.F.J.D.j.h.u.u.y.h.R.|.",
"D.J.K.K.L._.I.h.D.Q.L.S.j.k.Z.A.Z.k.k., $XXX/ H o m ;.;.u ;.2.<.;.T T =.;.;.;.;.s ;.;.;.;.;.m #.;.;.;.s ;.;.;.u o.= D { %XXX1 B.`.b.n.K.G.S.J.S.s.t.e.e.e.y.P.`.",
"s.n.J.F.F.F.F.C.Q.`.Q.J.D.A.A.A.u.y.d / { / A O u ;.;.*.u :.2.<.;.T T ;.;.;.;.;.s ;.;.;.;.;.m o.:.;.<.p ;.;.:.s =.U * / S A A @ `.K.H.L.J.J.K.J.S.j.r.e.e.e.y.z.",
"b.S.J.F.C.A.F.F._.[.Q.L.J.S.k.U.D.v.d S L J S @ u ;.;.;.s ;.2.<.=.T T =.;.;.;.;.s ;.;.;.X.:.m o.:.;.;.s ;.o.o.s =.T * S J S S @ (.L.L.L.K.J.S.U.!.n.y.j.b.m.h.e.",
"K.J.D.F.C.C.F.U.(.`.W.J.J.x.z.).].E.k $X,X*XXX& u ;.;.;.u :.<.:.;.T T ;.;.;.;.;.u ;.;.;.a -.m #.;.:.:.u ;.T N u =.T * %X*X#XXX: K.K.L.L.L.H.s.m.).m.d.S.!.`.m.e.",
"K.S.v.u.u.u.l.J.P.m.v.v.S.h.z.`.{._.l $X%XXXL @ u ;.;.;.u :.;.;.;.T T =.;.;.;.;.u ;.;.;.a +.m o.;.;.:.s ;.U b a =.T * XX#XXXL $ J.L.L.L.L.G.s.s.m.f.s.D.^.[.B.e.",
"Q.D.s.s.s.r.z.D.j.e.t.u.Z.h.b.`.|.{.z / { / A O p :.:.;.s :.;.:.=.T T =.;.=.;.=.s :.;.;.a +.m o.;.;.;.u =.T b t =.T * ^ { / A @ J.H.D.G.D.S.z.y.t.y.z.S.Q.`.D.s.",
"[.(.J.D.n.y.j.J.j.t.h.Z.A.S.L.[.|.{.l S S S S @ y :.;.;.u :.;.;.;.T T ;.1.=.;.=.u ;.;.;.a +.M o.;.;.;.s =.T b t =.T * S J S S @ D.z.s.y.s.j.S.S.l.S.S.z.b.T.U.D.",
"`._.~.W.J.v.S.J.v.t.u.u.h.l.H.^.`._.j oX#X#XXX% y :.;.*.s :.;.;.=.T T ;.2.;.;.;.u ;.;.;.a +.m o.;.;.;.s =.T b y =.N * $X*X#XXX: H.H.j.r.w.r.v.v.A.W.T.s.j.J.K.L.",
"L.(.[.~.K.J.J.H.j.t.y.y.r.t.z.J.W.U.h [ #XXXL @ y :.;.;.u :.;.:.;.T T =.3.;.;.=.u ;.;.;.a +.m o.;.;.;.u ;.T b u >.OX8 #X#X XL $ K.`.I.s.e.e.r.h.A.Q.).v.j.J.K.W.",
"L.(.[._.L.L.S.v.h.k.P.M.y.h.S.J.K.J.f 3 6 1 1 . p :.;.=.u :.;.;.;.T T ;.3.;.;.=.u :.;.;.a +.M o.<.;.;.p ;.,.XXoX XH 1 1 1 % 1 O v.Q.K.S.C.u.u.h.h.U.!.T.P.v.Y.`.",
"K.(.[.`.W.K.n.y.k.G.].R.z.S.L.L.L.H.f %X;X%X+X: u :.;.;.u :.;.:.;.T T ;.3.;.;.=.s :.;.;.a +.m o.;.;.;.p %.P P ( L / 1 +X) ( +X: z.H.J.H.F.A.A.u.y.n.W.].^.b.^.|.",
"L.(.[.[._.b.h.k.C.G.].`.U.U.U.L.G.F.f oX#X#X] @ y :.:.;.s :.:.;.=.T T ;.3.;.;.=.s ;.;.;.a +.m o.;.;.:.s %.P P ) L ^ 1  XF oX' @ D.J.n.h.C.C.A.h.y.n.W.Q.!.`.{.|.",
"L.~.[.[.(.I.H.J.A.v./.Q.G.U.K.m.l.h.f [ #X XL @ u :.U #.u :.;.;.;.T T ;.3.;.;.=.u ;.;.;.a +.M o.;.;.;.s %.H H H H J 1 g H XXL @ J.E.n.y.u.C.J.n.y.z.S.Q.`.}.).T.",
"J.~.[.~.Q.`.'.'.H.z.H.J.F.G.H.z.y.s.g 2 6 1 1 . u :.m } u =.=.<.;.T T =.3.;.;.=.u :.:.;.u @.U #.:.:.:.u =.=.;.u $.K < A 6 1 2 o U.U.n.y.y.b.`.T.s.y.x.`.[.[.H.u.",
"j.H.Q.Q.J.H.R.[.T.S.J.J.G.L.L.T.R.T.k $X;X$X+X& u :.m } u <.=.=.=.T T ;.3.;.;.=.u :.;.;.u =.s #.:.;.<.u ;.;.;.u ;.U = $X>X$XOX< ^.G.k.y.m.).{.`.T.b.v.Y.!.E.S.u.",
"s.n.G.J.S.y.m.`.!.L.L.L.L.G.Y.[.'.`.l oX;X$X] @ y :.m } u =.=.@.;.T T ;.<.;.;.=.u :.;.;.u ;.s #.:.;.;.u ;.;.:.u =...* .X$X$X] # `.S.v.x.T.[.}.|.{.W.F.U.G.A.A.A.",
"H.F.F.A.l.y.v.L.L.L.L.L.J.v.b.`.R.m.j  X$X XL @ u :.m } u <.<. .;.T T =.;.;.;.=.u ;.;.;.#.;.U #.;.:.:.u ;.:.:.u =.U * [ @X.XL # ).x.M.^.Y.U.[.|.}.!.J.L.G.A.G.J.",
"L.G.Z.Z.l.v.n.J.L.L.L.L.J.j.s.P.M.s.d < # & 2 . u :.U #.u <.=. .=.T T ;.;.;.;.;.s :.:.;.;.;.m #.;.;.:.u ;.;.;.u ;.T * 2 6 4 1 . `.I.I.Q.G.F.].[.].Q.L.L.F.k.J.(.",
"L.G.F.Z.A.G.J.L.L.J.J.J.H.v.t.y.r.y.j { A .X$X4 y :.:.=.u =.=.O.=.T T ;.;.;.;.=.u :.:.;.:.;.m #.;.:.:.u ;.<.<.u ;.T * $X>X-X&X3 '.`.Q.F.A.F.].`.W.E.L.L.S.z.T.[.",
"F.L.Q.S.h.J.K.J.S.v.j.h.j.v.l.h.x.n.j F K $X$X2 u :.:.=.u <.=.+.=...U ;.;.;.;.=.u :.;.;.;.;.m #.;.;.:.u =.1.1.u ;.T * oX#X#X%X3 T.P.S.A.h.l.W.Q.E.G.G.J.K.T.!.^.",
"A.W.`.S.h.S.J.D.j.y.y.y.s.n.G.F.F.J.k ) .X$X.X# y :.:.=.u <.=.O.;.N ..;.;.;.;.=.u :.;.;.;.;.M #.;.:.:.u =.1.1.u ;.T * { ;X#X{ & D.j.h.C.h.h.G.J.G.G.G.U.~.[.(.Q.",
"J.L.W.S.Z.A.Z.h.n.S.Z.A.D.x.h.G.J.J.j / [ / S O u ;.;.=.u ;.:.;.;.T T ;.:.:.=.;.u :.=.:.;.;.s #.;.;.;.u ;.1.1.u *.T * ^ ' A A @ J.G.S.Z.S.D.A.l.h.Y.].W.W.Q._.{.",
"L.L.J.S.h.h.y.t.n.U.A.F.F.n.v.H.L.K.k S J S S @ u ;.;.=.u :.;.;.;.U U ;.=.:.:.;.u ;.=.:.;.;.M #.;.;.;.u ;.1.2.u ;.T * S 1 S S @ F.L.F.l.S.F.A.Z.n.W.~.G.G.E.Q./.",
"L.L.J.h.e.e.t.y.S.G.F.A.S.G.H.W.L.W.z oX*X#X%X1 u ;.<.2.u ;.;.;.;.T T ;.=.:.=.*.s :.:.=.;.;.s #.;.;.;.u ;.<.1.u =.T * #XS { XX: Z.J.n.y.k.S.A.G.J.W.E.F.G.U.F.A.",
"L.G.F.h.e.e.s.n.A.F.A.G.Q.D.S.^.Q.G.l @X#X#X{ $ y <.<..Xu <.;.;.;.T T ;.:.:.=.;.s :.=.2.:.;.U #.;.;.;.u ;.1.2.u =.T * XX[ / ] $ k.F.l.s.H.~.~._.].`.].(.W.F.F.C.",
"Q.J.A.h.s.s.n.K.S.h.C.G.^.m.f.R.E.S.l {  XH J @ y :.;.3.R %.%.%.$.R R ;.;.;.;.*.s :.;.3.;.;.U #.:.;.<.p =.<.1.u ;.T * { oXg A @ h.k.u.h.W.[.].[.}.[.[.`.W.A.C.k.",
"[.!.A.S.D.G.J.J.v.y.t.y.f.y.r.f.f.y.k D 6 6 6 . u :.;..Xa._ ' E E D G ;.;.;.;.;.s :.;.3.;.;.s #.;.;.;.p ;.;.;.u =.T * D J 6 6 @ e.t.u.Z.J.Q.Q.].[.`.W.b.v.Z.u.y.",
"|.(.G.G.K.K.L.!.D.x.j.x.x.m.M.M.b.j.h ^ ] L ^ $ u ;.:.*.Y =X4.;.*.Y W ;.;.;.;.;.u :.;.3.;.;.s #.;.;.;.p ;.;.;.u =.T * P P P ^ % w.z.l.F.J.L.!.(._.Q.H.n.l.Z.l.j.",
"[.(.K.J.J.K.!.[.^.U.U.U.U.^.].].Q.A.h $X%X#X{ $ u :.:.*.I =X;.;.;.o.W ;.;.;.;.;.s ;.;.3.;.;.U o.:.;.;.s ;.;.;.u =.T # $X;X#X X% y.G.J.L.L.!.].].L.L.L.J.G.A.G.G.",
"H.n.v.n.S.v.I.[.[.(.L.L.L.L.W.W.U.G.h { @X] J @ u :.;.*.y ~ *.;.;.W W ;.;.;.;.;.s ;.;.3.;.;.m #.;.:.<.p ;.;.;.p ;.U * { @X] J # n.J.L.L.(.].}.(.G.F.G.J.W.!.K.F.",
"t.t.y.h.l.v.T.{.|.[.~.L.L.G.A.F.G.J.h F J 4 6 O y :.:.;.u %.~ ~ W n U ;.;.;.;.;.s ;.;.3.;.;.m #.;.;.;.u ;.;.;.u ;.T * D H 6 6 o J.L.L.L.^.`.`.W.v.A.A.G.!.[.L.F.",
"y.u.k.C.F./.[.[.|.|.[._.L.U.G.U.U.U.h P [ ) / $ y :.;.=.u :.$.~ ~ U ..;.;.;.;.*.u :.;.3.;.;.m #.;.;.;.s ;.;.;.s ;.T * ^ ] L ^ % J.L.L.J.m.b.j.d.i.n.G.z.I.[.~.J.",
"h.u.u.u.l.I.^.`.`.`.`.~.L.E.L.~.E.n.h $X,X#X#X1 u :.=.=.u :.=.=.;.T U ;.;.;.;.;.u :.;.3.;.;.m o.;.X.X.s ;.;.:.s ;.U * .X%X#X%X1 n.J.L.J.H.m.d.r.h.S.S.s.n.~.Q.L.",
"Z.h.y.r.r.y.n.L.L.L.L.E.L.E.!.].Q.s.h @X#X@X) @ u 1.1.*.u :.:.;.;.T T ;.;.:.;.;.s :.;.3.;.;.m #.;.T b t ;.;.;.u ;.T * { #X@X) $ h.D.W.W.`.).x.u.Z.C.l.h.v.K.L.L.",
"A.F.I.v.y.v.S.L.L.E.F.F.G.Q.].[.^.k.h [ #X XH @ u 1.1.;.u :.;.;.;.U T ;.;.;.;.;.u :.;.3.;.;.m o.;.T b t ;.;.;.u ;.T * { #X{ J $ u.S.E.`.[.).b.s.C.A.Z.S.D.J.K.K.",
"A.E.].U.z.H.E.L.L.G.F.A.A.~.[.[.~.G.h  X@X^ J @ y 2.1.*.p :.;.:.;.T T ;.;.;.;.;.u :.;.3.;.;.m #.;.T b t ;.;.;.u *.T *  X@X/ J $ S.F.Q.{.[.).v.h.C.C.A.D.K.K.J.D.",
"A.E.[.!.P.J.L.L.G.A.A.A.A.~.[.]./.].l < 1 @ @   u 1.1.;.s :.:.m ;.T U ;.;.;.;.;.u ;.;.<.:.;.m #.;.T b t ;.;.;.u ;.T * < 1 @ $ . `.].{.}.Q.S.k.k.y.w.h.G.K.K.v.s.",
"h.G.(.L.G.K.J.n.C.u.u.h.k.Q.{.Q.W.~.k [ ] x  X1 u 1.1.*.s :.=.s O.T T ;.;.;.;.;.u :.:.;.;.;.m #.;.U } a ;.;.;.u =.T * #X;X@X#X3 {.|.[.~.G.C.A.l.j.j.n.H.L.L.H.B.",
"t.v.L.G.F.J.n.y.u.w.t.w.u.T.`.W.G.F.f { S  X%X1 y 2.1.;.s :.;.s | T U ;...;.;.;.u :.:.:.;.;.m #.;.U v a ;.;.:.p =.T * #X#X#X%X3 [.}.~.S.A.C.Z.A.J.G.J.J.J.L.~.'.",
"n.D.K.G.G.J.n.y.k.v.r.y.k.n.H.S.A.A.f F H oX] & s 1.1.*.u :.:.s | T T ;.a -.;.;.u :.;.:.;.;.m o.;.U N y ;.;.:.s =.T * oX#X#XoX& !.~.L.A.u.u.u.j.z.b.j.x.c.v.K.(.",
"L.L.L.L.L.G.m.b.D.J.z.h.k.u.y.k.A.A.k ) oX{ J @ u 1.1.;.s :.:.u | T T ;.a +.=.*.u :.;.;.;.;.m o.:.T T u ;.;.;.p =.T * { #XXXL $ J.L.J.F.l.u.y.y.y.w.r.e.r.s.S.L.",
"L.L.L.L.H.j.D.).Q.U.U.S.C.u.y.k.S.D.k / ' 9 A o y :.;.;.u :.:.u  .T U ;.a @.;.;.s :.:.;.:.:.U o.;.;.;.u ;.;.>.I ,.oXg / ' S A @ J.L.Q.`.Q.D.D.S.l.y.w.r.j.H.J.L.",
"L.L.L.L.D.s.x.I.H.S.J.S.k.t.t.u.S.K.l S H D D o s =.;.;.u :.:.s  .T T ;.T ;.;.;.u :.:.;.:.:.p o.:.:.:.u ;._  X X[ H 1 S J S D O G.L.W.~.~.!.D.v.Z.v.j.j.S.J.K.L.",
"J.J.J.J.S.s.y.y.y.z.D.n.y.r.t.e.x.U.z $X*X$X$X2 s :.;.;.u :.;.u  .T U ;.;.;.;.;.u :.;.;.;.;.m o.:.;.:.u %.^ ^ ] P ) 1 %X*X#X%X3 Z.H.D.F.Q.(.v.h.Z.G.J.J.L.L.L.J.",
"x.j.j.j.v.b.v.k.l.b.v.s.e.z.v.y.m.).V #X$X#X$X2 y :.=.*.u :.:.u  .T U ;.;.;.;.;.u :.;.;.;.;.m o.;.:.:.u %.L L P J L 1 XXoXH J @ y.v.l.A.G.U.k.l.G.J.L.L.Q._.H.v.",
"z.s.e.e.y.n.S.A.U.U.s.r.s.S.J.b.I.{.V ,.#X#X%X1 p ;.;.;.u :.:.u | T T ;.;.;.;.;.u ;.;.;.;.;.m o.:.:.:.s ;.K K D K F 1 +XS ( +X< e.y.k.Z.A.Z.k.A.D.K.K.W.`.[.B.t.",
"`.P.y.e.e.y.k.A.Q.).f.z.D.U.W._.'.|.V { #X#XoX< p ;.;.;.u ;.:.u | T T ;.;.;.;.;.u ;.;.<.;.;.m o.;.;.:.s ;.;.;.s *.K = P F ) H @ r.S.S.A.C.Z.u.t.s.S.L.].[.[.H.y.",
"`.T.v.j.x.M.b.l.Y.(.P.m.m.Y._.[.|.{.z  X+X' ^ @ u ;.;.*.s :.:.s | T T =.;.;.;.;.s ;.;.3.:.;.M #.:.;.:.u ;.;.:.s ;.U * P ) H J @ j.S.F.A.A.k.y.s.H.Q.].[.|.|.R.B.",
"W.J.H.J.W._.I.s.S.Q.`.R.v.T.}.|.{.{.l { oXF H @ y ;.;.;.u :.;.s &.T T ;.;.;.;.;.u ;.;.3.:.<.s o.;.;.:.u ;.;.:.s ;.T * [ oXF H $ D.A.Z.Z.C.k.y.m.[.[.[.[.|.[.[.'.",
"W.D.v.H.U.M.b.r.n.Q.{.`.!.].[.].^.W.k 3 6 4 3 . u T b &.s :.;.;.;.T T =.;.;.;.=.u ;.;.3.;.;.m o.;.:.:.s ;.;.;.s ;.U * 3 6 1 4 . T.v.u.u.u.u.u.G.~.~._.[.[./.Y.B.",
"W.b.r.x.D.v.s.r.v.Y.].|.|.|.[.W.F.A.j %X:X-X%X1 y T b &.u :.;.;.;.T T ;.;.;.;.=.p ;.;.3.;.;.M #.;.=.:.u =.o.O.s :.U * %X;X%X%X1 _.m.s.h.y.h.Z.F.L.W.~.]./.E.v.s.",
"E.n.r.s.b.).P.y.y.b.`.|.|.|.].G.A.A.j oX%X#X%X3 u T v &.s :.;.;.;.T T ;.;.;.;.;.p :.;.3.;.;.m o.:.;.:.s ;.T v a ;.U * oX$XoX] < '.'.Q.H.D.D.J.J.L._.].~.W.L.J.D.",
"L.n.r.b.I.'.).M.v.v.Q._.~.~.!.G.A.c.h { #XXX/ % u *.&.=.u :.;.;.;.T T ;.;.;.;.=.u :.;.3.;.;.m o.;.;.;.u *.T v a ;.U * { #X{ J $ [.|.].W.L.L.~./.~.[.].L.G.G.J.L.",
"J.b.z.I.{.{.{.'.U.S.E.G.F.A.F.G.n.s.h { @X' H @ u =.:.=.u :.:.:.;.T T ;.;.;.;.=.u :.=.3.:.=.m #.:.;.:.s =.X.X.u =.T * { oXH J $ '.[.`.L.L.Q.].[.}.[.].G.A.A.F.J.",
"x.D.T.W.Q.{.|.}.Q.G.E.G.A.F.G.L.D.n.k [ oXH H @ u =.=.=.s :.:.=.;.T T ;.;.;.;.=.u :.=.1.=.=.m #.;.;.:.u =.;.:.s =.T * { oXF J $ ^.(.!.L.E.Q.[.].(.L.S.A.k.u.h.v.",
"y.H._.U.F._.`.).Q.L.E.F.F.S.H.L.L.L.k 8 A 1 1 . r ..=.=.u :.:.=.;.T T ;.;.;.;.=.s :.=.:.:.=.m #.;.;.:.s =.;.;.s ;.T * 8 9 < 1 . H.J.J.J.J.W.].].L.v.u.k.h.t.y.s.",
"D.G.G.A.A.G.n.v.D.J.F.F.J.l.h.G.L.L.h  X X{ { & q m =.=.u :.:.:.;.T T ;.;.;.;.=.u :.:.=.:.=.m #.:.;.:.u ;.;.U r #.r * {  X X X< D.j.j.A.A.G.].].L.S.Z.C.h.y.b.H.",
"E.G.C.k.u.k.h.v.S.F.A.G.Q.G.v.J.J.G.j @X@X] J @ q q q o.u :.=.=.;.T T ;.*.M e e q e M =.:.=.m #.;.;.:.s *.M q q T e * { #X@X) # D.p.k.Z.Z.F.Q.Q.L.E.U.k.v.B.D.n.",
"E.G.S.h.y.t.h.G.S.A.A.E.].Q.H.W.G.F.l [ ] F J @ q q q M y T T T N m s T M q e q q q q M T T u M T T T r M q q q q e * [ @X( J # G.A.A.Z.A.A.F.G.W._.(.x.D._.H.y.",
"L.Q.Q.J.v.u.h.k.k.A.A.G.Q.H.n.^.W.F.l 8 1 1 1   * * * * * * * * * - - * * * * * * * * * * * > = * * * 0 * * * * * * X 8 g 1 1 . l.F.F.A.F.G.~.].`._.W.k.A.U.S.u.",
"L.~.{.~.U.F.u.u.h.A.C.F.G.v.z.`./.F.B.g.5.6.8.6.Z 6.5.i.i.p.N.B.B.V.N.0.5.5.a.B.B.g.i.0.8.8.9.6.7.i.i.g.i.0.9.9.0.q.i.q.0.9.9.6.y.G.G.A.G.Q.].[.[._.J.F.A.A.C.A."
};
