/* XPM */
static char *result[] = {
/* columns rows colors chars-per-pixel */
"80 80 51 1 ",
"  c #75A443",
". c #7AA542",
"X c #77A843",
"o c #7CAB44",
"O c #7EB245",
"+ c #82AE45",
"@ c #89AF46",
"# c #86AF48",
"$ c #83B446",
"% c #89B547",
"& c #83BB46",
"* c #8ABB47",
"= c #87B148",
"- c #8CB549",
"; c #8CBB48",
": c #93B54A",
"> c #93BD4A",
", c #9BBD4E",
"< c #A0BE4E",
"1 c #86C147",
"2 c #89C047",
"3 c #89C448",
"4 c #93C44A",
"5 c #9CC54C",
"6 c #95C94B",
"7 c #9CCB4C",
"8 c #A1C44F",
"9 c #A2CC4E",
"0 c #A8D04F",
"q c #A4C451",
"w c #AAC652",
"e c #A5CC50",
"r c #ACCC52",
"t c #B2CD55",
"y c #B8CF57",
"u c #A6D050",
"i c #ACD252",
"p c #B4D454",
"a c #BAD556",
"s c #BCD957",
"d c #BDD558",
"f c #BDDA58",
"g c #C3D75A",
"h c #C4DC5A",
"j c #CADE5C",
"k c #D0DF5E",
"l c #CDE15D",
"z c #D2E35F",
"x c #D6E460",
"c c #D9E661",
"v c #DEE863",
/* pixels */
"04 >5+   o&& rk7607474    =u000000plp    %uu8$%0hvvj9633uvh000063333OX   >uu> >u",
"0> *6$%,:;75=axu7u0u75,# $>u54677phzao:>o%u96o%0hclhsp9;7lp7974*O&OOOX#;,qip5 >e",
"u> O33uvfpzluhxpuuhl7uvq+5uu;o112pvvs3aj-%06&X%0lzpsvvj;%u739>       o5fvspxa >u",
"07>%OO4gp9q8uhxlhhse6ivp>9003O113szli7hj85096*$;azpsvvz84e9795>>*o   +iggpipuO;7",
"587-oo;094o=0jvzcvp629zs90984&&13pzpu0jzreu0u7;owhisvclp000089p07$+=o-gh7900973&",
"+$+;4;40>o.%0hzhhvza;>p9694+oooXXtxpuujj,;u0ifi1476iclp00008;8zi45wgq4ja@400il5o",
"   $4470,%%40hzpsvvj5>07604...   ,t95>sj4*7ihxf63337lpu000u8+-y4;7ple;jaO39plvr%",
"    o5uu00000lzpsvvxp00000>... .. X&& tj733svvlu71369u0000u5+   o5ue%-gf117jcvfu",
">;O5w>4000hlhsi770ss00009>,t:.-%. X&& 5ffasjxfu6ui*;008>***;>%O*>;>0-+rsssfxli76",
"54&pj;*90szvzp33347000005+:j<+54..X$O 4axvvxf713pg>>009:+  o>6344o-0-+8hvvvzp333",
"$ootj5*4pzzvvi33679000008++-++5>.  oX qzvvvs73339p9700isq   o$3*+.%0*@azvvzi6333",
"o$=pxe66hvvzlu669sp975676;$o+%>%.  $o ,affjpiu76999779ihy,:=OO&$-%;7**pkvvls7666",
"36uhzpu0lvvlu000svg7OO33397355+   o5> XoO6uhvvlu094136u0svs96& ;0063339svvvvluuu",
"O;ee,:469pzzl0000096>2134997pa%o>+@yiOOO16ihvvd%57&O+4977isa>$>ta,%OO$&8ffffpuuu",
"o;u>ooO337lzla97642376&13799sh,>7->gh431137dxxt ;7$o=50766sj,>0hj,+@o o;uu9799ii",
"590861136izh763&;9;$84oo$7769agw+;9jh7*XooO5pp5 $3;7hp0fs7hz08uhj55g,o47uuu764pk",
"0000933680hp62&$>0%o43O$-9000pzs%5rpr75:+o%495*OO&O7jp0tt0jzjp70p6uvr>70096433sv",
"0000966000000;o500*X*12600svspzj005=$3aj-%005=o3O  %009+$0jvzh3333uvhe00061333pv",
"0000ip0*5008-$&4663OOO$400889pkzhr-$*3pjq5009*&3&&qr0aa@%0jzjsssr;4h0695*$OOoOyv",
"89090hrX4p05+*331&&*X  >99> >pzzzw:43&pjp909521&34gh0sg-$5pgipjzj,;06695oX X  qj",
"@>07674&ijp95433&ooo   >5%o >pzjpsgjrX5p560>+ooXX$eiiir%.+->98:ale8099085%.   #-",
"%4063336fzp9e3*e7$$%$%=59>$O%5tp0tgzs$40660>..  -,,5uu98: o$4;.8hp00095es>.@-,# ",
"00u63360hxpuu-#gj0000u000063O..-0-@gl000000-..X tg:=uepzt $13$.>000007$,v<@5svq ",
"05*$OO*0w5>;7$#gzhpigi%500pstw;&6*;pa00005-8w,% tj5&7plzg>3333>8000005o=<-+5sv< ",
"p5o+o.%0- XO3$;jvvsejaX;9ihvch7333490000e4 qgw; eju67fczs94&*400077574=ooo@4pzw+",
"za54>o%9;.O134ejvvw>jd*37hzvju6336900000i> #==o 4shjlxzi66&oo*008%++@=>4*3>%>p95",
"llsp9>>0%XO&O;5sjl,@psuuplzfu733&6009>>44;-OO$+ 5gxvcjp731**%4009q-  o%43er==0uu",
"9gzg0000*     +70u-o5fvvvvf3333&.;00>    %u63e> tvvvvi3313700000ply    o3pj:%0uu",
"0svh005*$*q, $4800-@tlvvxs733364>5000w:  o;*6puOpxjfg71OOo8s>-;%>pr>*O&OOeapq%rg",
"0svl09>o&6jao>0009*-hczzh73&&3689957pz8oooXO6hp3pjpu076$++rd-.Xo=798333O ;ijy-av",
"0szzh>$&&7jg57ue7326hlpai6Oooo$%4&++>pr43&&O$eu3epiu0she5576Oo&45e5+*33& >upagkv",
"0svzg88043aa7ue5;&&6ssuuuu7*%$OO&$%->05>1OOoo5767777epssi>32%;67uu> O&7> =5pjvgp",
"0svhpzvv<o57375+  &39000pzl0093&.;0000*     o5ie6336u67lp $3euuuiu>  -gy  #gvvq ",
";8sp98yvy49979errt97666900ph0;24>50000% .-t-.#5hfi;*733u7O37uu0sf7; ,yxjt>;tsi4O",
"+;995+,zs00008rxzja961&6730l<+*6000p08$.#wvw#o,xcj-O43331147900hk5*#rxcvvi497336",
"84362X>pi00004:gg:776OX&63374*69000ja+X@rkvly44akj-=7411OoO%800hj;,grijvvs9u7167",
"07332*>00000u;+q< >r04 *6333&&*500pzg%>8alvvzu70gk5>7333&O>8psszkrwf96lzlp006&8s",
"053339000000e%    >pzt >9333O .$00pzj9hk7uvvzp00hxp7333312szvvvvvvf317hluu0i> tv",
"69p6$7004-%;;>**$>5pzg>46133O+8phjlzzha06uvlsi00psi5OOOO&10hslvlsw63&*tpu779etps",
"60z8+695:ooXo;546080hh031111o%gzzzvzzj92&9zs0090uuu4oXoo&4900szs7%$1$$697779szhp",
"70p7&2*$;4335;%490>-0p0;oXooO20pslzgr-;&$;p095600005&&*6699phlp007414442+0li0ilz",
"0094&&o ;9447>>80098r0sw,.o%469pshl05%$&$>754eu00000076900phzh77705&4632$0s990ps",
"000;    ;e4337uu00jzpsvvk:*0000szs0000-+573O%gl0000svh0000hvvf33394 O33600766063",
"096$  +>6437a5>pp6szjzvvl85000glvp66794*44335p067060sp0000hcl01324*.5spshjls0731",
"p93&o+>94&35j,#ti1pvvvvzh0000pllzp666763136600767934559900gj06&&&1$orzzzzzzkp211",
"lp345590;oX$-+ -=opvvvvs7660sl097sllr$&11699009905&o$o%5000r;oooooO&9pshvlp,*1&X",
"zl69000g5%=%=:,,:O8fsss7&O30slpi0lzleO$$&30094>>>4%$O$%>5007$ X .O>690ahjp9;22&%",
"zl0000hzfuuiejvvs313332$..*000zvvvl733O..$009+. .o55357$%008+   o5000izh00009260",
"8,;46>wvzgp000pi07412374>;50hhzvvh0622*>>4000r, .X$*3;%.%00ittt<,900alkh56790h96",
".XX$3-wvvzs00663604116000999hzzzz01&12490975rjto. .o&$$@>7eazzja0000ajjp*265pvp4",
".o&14pjvvzzh097900>XX*009*%4hzhpp71OXX+%84++%r05%...X;9aw@rzzg:5i0004::@+>6;wvs9",
"O&OO*wgjjlls000s0>*%>8094$&10h00009;%*$$>%.+-78>+o$o >rtw,gcka<,49008,@.O;4+,hp0",
"3O    -00u0000plt.>plj06333370000hzs0062X..>004..+8>.;5@<vvzaszwo5u0gj:$22&o%000",
"36t%o%4009766plza&27p0*2362O*66909wst;*3>>>5004..@yw +:wgvg<>wvr*3uhzj:o332>5000",
"30vw$5u007333szzs66694X&694.$2128*=a0.&6900i00> +,gg@+%skj8. ,zp67pvzg>O11390095",
"3uvs5e0073333szlhhi905&699>..ooo=$&66&49000gjp>.<jkkg820093&X;pghlzvs6*&oX$700>O",
"O5li708>2&&O&pxpih04>>$475;.::.+%*331O3699>gkw,,0lzvzp6073&OX;szvvzf7312%%%9008<",
"X*u6394  .   rzp72O....$32*.tj:-0631OX o54.tj:8v07lzvs0073$..,vvvzl13334000000hc",
">50970>.$;oXO>q562>%+...OO$>dk846431& ,tggtjzgr067llhp005OX.O8vjss03&OO$:**%%%rh",
"000008,-48%$3OX&3379@.:@Oo>0ghr41&11OXwxzzvzkkt2&6hh00005=@$10za0096&Oo++....+40",
"00008*,gp9543OX&4908@:ht658000>+ooooO&7pphvli>;3&=9p0769pgr537p000plr554*o..@590",
"00005+-ye585OOXO40p0%<vls00009;$$OO$;6ussfl04*OO$;8006360jr4667999pssp9;22$@>090",
"00005$   o54    %0hk:<vvzp000766u63900jvvlu733OX;000063260-+57333973aj;O26000000",
"*%*%-;*$*;%$ =*o:hkj:<vvzls0007uji7000hchp633Oo.*7900636904*56OO$**299*27900pj9@",
"#+  o>63ue$ o48>wvvj:,zzzzh000pshp8999hzp733&o.+*490042599425>@..+$33113500phzw.",
"gq   o$3id==59rdkvvj:;pppap000gp;@@+%2szp733&o@779900>o@>9>+@5g>+>6331Oo+50hzvw.",
"jy$%%,>&rgq>>rhxvvjp>>0866970jzsOOO@%&9p6*&&*>8>5>9004Oo5g,.@wv0%4622&X$,rlzvvg<",
"e000ply ;pxy tvvvvp3900-+&22svzg3247>.O1X   @gy..+9906320v8+5pvh942231X,vvvzvvvv",
"e5-5ew- >pkkrlzlai980004O131szlss0799;564%.X4hs$*4996336pvt>9phhp>O$OO$4hshzzgr8",
"i4 -5-+ ;ejvvvzi63600983111&pzpsla90000005+*6gp&59942&29pjt9909hj<+.OO*600slhr>.",
"u> .:tq o:hcvvlu336004@oooootzp072@500000954309+>9*+oo$59@@*500hzkp655900hlsp096",
"r4.-wkg,-;plffs73*6004 . X .,r962++9is00,564675%w0+....**..$45>gvvl000pssll07790",
"04 tvvvvi4971347>.>00>..  ...X&33$+5svg5@$313700hj:.......%21&.rvzl00plvvvz73370",
"-,traxvvs6u716799;89>,t:o%@..X&4545ahh9$oXOO*7969ww<.@*...oOOO.5ggs00pzzs056OO&;",
"o5ju6fjjpu974680909>.,j,+5>..X&400agp9@..XX.+497*:gg+45@..@+...5099970ll0*O&$..+",
"5774365-59669;%700>o.+:+o54. .X*0gh<@@.X$&&++5pjpwjg595@+*9p@@598;*367ll04&1&.:8",
"e931O&$%4637f5;8975,;$O$%>-.o$.:skj:oOOO&OO&>7ryrpllh94$$2sl54009%&136ip009**<,4",
"u71O  %u633uvfue73szp5268$..;9@<vvj:o311o  >004 >plcv8.&33szp000943333360hj-,vq.",
"ups8;&&*3337fq>ai3pz8*22%..>90tgvvj4$$8pt8>466; >0ghh5*2370p9663*46339plhhp44u4$",
"0svs94O O336u;-gs3pj%O3O..%00pzzvvz7&.tvvl0631& >90004226000323Oo5727ilzvh933333"
};
