/* XPM */
static char *result[] = {
/* columns rows colors chars-per-pixel */
"80 80 210 2 ",
"   c #474B3D",
".  c #4B523D",
"X  c #525D3D",
"o  c #54633D",
"O  c #596A3E",
"+  c #5C733F",
"@  c #63773F",
"#  c #4D4B47",
"$  c #514F4C",
"%  c #4E5242",
"&  c #525544",
"*  c #565A47",
"=  c #53524B",
"-  c #5A5C4B",
";  c #5B5756",
":  c #5D5D53",
">  c #605C5C",
",  c #5C6442",
"<  c #5B6547",
"1  c #5D6B45",
"2  c #5F6353",
"3  c #626E45",
"4  c #636648",
"5  c #627442",
"6  c #667C41",
"7  c #6A7947",
"8  c #717C49",
"9  c #676857",
"0  c #64635B",
"q  c #6D7956",
"w  c #727C5F",
"e  c #676262",
"r  c #696564",
"t  c #6C6A63",
"y  c #6E6C69",
"u  c #726D6D",
"i  c #777965",
"p  c #74726C",
"a  c #767171",
"s  c #7B7675",
"d  c #7E7B75",
"f  c #7E7A79",
"g  c #817D7C",
"h  c #6B8441",
"j  c #688743",
"k  c #738743",
"l  c #7A8D46",
"z  c #74884A",
"x  c #6D9242",
"c  c #749543",
"v  c #7A9747",
"b  c #739B44",
"n  c #7D9855",
"m  c #76A543",
"M  c #7AA643",
"N  c #7CAA44",
"B  c #7BA14A",
"V  c #7DB245",
"C  c #7E8668",
"Z  c #838D4B",
"A  c #859849",
"S  c #828A5E",
"D  c #879757",
"F  c #86A747",
"G  c #82AD45",
"H  c #8AA449",
"J  c #85AD49",
"K  c #99A74F",
"L  c #83B446",
"P  c #8AB547",
"I  c #84BB47",
"U  c #8ABC47",
"Y  c #85B249",
"T  c #8BB549",
"R  c #86BD48",
"E  c #8CBB48",
"W  c #92B54A",
"Q  c #99B74C",
"!  c #93BC4A",
"~  c #9BBD4D",
"^  c #87AB56",
"/  c #89B553",
"(  c #95B956",
")  c #9FBF50",
"_  c #AAB554",
"`  c #A5B853",
"'  c #828C6B",
"]  c #89976A",
"[  c #909D6B",
"{  c #848475",
"}  c #87867C",
"|  c #8A9374",
" . c #8F9875",
".. c #949978",
"X. c #8BA562",
"o. c #8BA766",
"O. c #98AB65",
"+. c #9AB562",
"@. c #99A079",
"#. c #9EB479",
"$. c #A4BB69",
"%. c #A5BB74",
"&. c #86C147",
"*. c #88C147",
"=. c #87C248",
"-. c #8BC448",
";. c #94C44A",
":. c #9CC54C",
">. c #95C94B",
",. c #9CCA4C",
"<. c #9BC455",
"1. c #A2C34F",
"2. c #A4CD4E",
"3. c #A8CF4F",
"4. c #A8D04F",
"5. c #A5C451",
"6. c #ACC652",
"7. c #A4CD50",
"8. c #ACCC52",
"9. c #A7C759",
"0. c #B4C657",
"q. c #B3CD55",
"w. c #B9CF57",
"e. c #BBCB5A",
"r. c #A7D151",
"t. c #ACD251",
"y. c #B3D454",
"u. c #B9D556",
"i. c #BCD957",
"p. c #BDD458",
"a. c #BDD958",
"s. c #ABC765",
"d. c #B6CE67",
"f. c #B7C579",
"g. c #C3CD5B",
"h. c #C0DA57",
"j. c #C2D65A",
"k. c #C4DB5A",
"l. c #CADD5C",
"z. c #D1DF5F",
"x. c #CDE05D",
"c. c #D3E25F",
"v. c #D7E460",
"b. c #DAE661",
"n. c #DEE863",
"m. c #868181",
"M. c #8A8583",
"N. c #8D8B83",
"B. c #8E8989",
"V. c #908F86",
"C. c #928D8C",
"Z. c #929383",
"A. c #95918E",
"S. c #9A998C",
"D. c #969191",
"F. c #9A9594",
"G. c #9F9C95",
"H. c #9F9A99",
"J. c #A29D9C",
"K. c #9FB085",
"L. c #A6AE8A",
"P. c #A8B685",
"I. c #A5AA93",
"U. c #A4A09F",
"Y. c #B0B590",
"T. c #A6A1A0",
"R. c #AAA5A4",
"E. c #ADA9A7",
"W. c #AEA9A9",
"Q. c #B0A9A7",
"!. c #B2ADAC",
"~. c #B5B0AF",
"^. c #B6B2B1",
"/. c #BAB4B3",
"(. c #BEBAB8",
"). c #C39A81",
"_. c #CCA68F",
"`. c #C7A793",
"'. c #D2B19E",
"]. c #C8B1A5",
"[. c #D6BAAA",
"{. c #C7BCB8",
"}. c #C3BDBC",
"|. c #D0BEB4",
" X c #C5C0BF",
".X c #CCC2BE",
"XX c #DDC5B7",
"oX c #D3C3BA",
"OX c #DBC6BA",
"+X c #C7C2C1",
"@X c #C9C4C3",
"#X c #CEC8C6",
"$X c #CFCAC8",
"%X c #D1C9C6",
"&X c #DCCCC4",
"*X c #D2CCCB",
"=X c #D6D1CF",
"-X c #DCD2CD",
";X c #DBD5D3",
":X c #DBD6D4",
">X c #DFD8D7",
",X c #E3D1C6",
"<X c #E4D6CF",
"1X c #E5D9D3",
"2X c #E2DCDA",
"3X c #E9DFD9",
"4X c #E7E1DF",
"5X c #EAE1DE",
"6X c #EBE5E3",
"7X c #EFE9E7",
/* pixels */
"4.! N ;.,.N m m m N I L N q.x.,.>.2.>.-.2.;.m m m m T 2.4.4.4.2.4.4.y.c.y.N m m m L 7.3.:.N T 7.l.n.n.x.4.>.-.=.t.v.h.4.4.4.2.>.=.-.=.=.V N m m m Q 4.4.! N ;.4.",
"4.! N E ;.L T ~ E E 7.:.! p.x.r.,.4.t.r.2.>.) J m Y ;.2.:.;.,.,.2.t.x.c.u.Y E Q N P 2.2.;.N L 3.l.b.x.h.i.y.2.U ,.a.4.,.4.2.;.R V L V V N N Y ! <.2.4.y.5.N ! 4.",
"4.! N L &.R 7.l.y.t.l.a.r.k.c.y.r.t.k.k.>.r.l.) G >.3.2.E N &.=.>.i.c.c.u.;.u.j.T E 2.,.*.N P 2.x.c.y.i.c.n.k.P E 7.,.;.2.;.N N N m m m m N ,.y.x.i.y.x.q.G ;.7.",
"4.,.! I V V ;.y.y.7.1.1.r.x.v.x.x.k.u.7.;.r.v.t.~ 2.3.2.-.I &.=.-.i.c.x.t.2.l.l.1.:.2.,.>.I P ! i.c.y.i.c.n.z.2.>.7.2.,.2.1.;.! E M m m m V q.x.i.y.4.i.7.I E >.",
":.2.,.T N N P 2.2.;.N T 3.l.b.c.c.n.y.>.R 3.x.y.2.3.2.:.! R I &.*.u.c.y.r.4.x.c.8.7.7.4.7.,.-.L 8.k.t.i.b.c.x.y.4.4.3.3.2.2.t.3.,.Y J P G T l.l.,.2.4.4.2.>.*.I ",
"G N N ! >.*.;.2.E N m P 3.l.c.i.k.c.c.i.P -.4.,.>.2.;.L N N M N G y.c.y.r.t.l.l.! E 3.4.t.l.t.-.;.>.-.y.x.x.4.4.4.3.3.,.L 1.l.4.-.,.8.h.<.;.l.u.P ;.4.4.u.k.:.N ",
"m m m P ! ;.,.3.! T P ;.2.x.c.y.i.n.n.l.:.! 2.,.>.2.;.M m m m m M ) q.2.;.:.j.l.! U ,.t.k.b.a.>.-.-.-.2.h.y.r.4.4.4.3.:.G T 8.! P 2.y.k.,.;.l.q.P ;.2.y.x.v.8.L ",
"M m m N T >.3.3.3.3.4.4.4.x.x.y.u.c.b.c.r.3.4.2.2.2.! G M M M m M M N R I N q.x.,.-.>.a.b.b.x.r.>.-.=.>.r.r.4.4.2.2.2.:.G N G N Y :.7.7.T T k.a.;.-.,.x.v.c.y.2.",
"! E I <.6.! ;.3.3.4.k.x.k.i.r.>.,.4.i.i.4.4.4.4.2.E ~ q.W G ! P M m N I V N <.i.a.a.a.c.v.y.7.>.t.t.P ! 2.4.2.E T T T T ! E I P ! P ;.1.P L 8.i.a.a.k.b.x.t.,.>.",
":.;.-.a.l.T P 2.t.i.c.n.c.t.=.-.-.-.,.4.4.4.4.4.:.N Q p.Q J :.! M M m L V N :.i.c.n.n.c.k.>.=.-.y.j.E U 2.2.2.! N m m N ;.;.-.>.;.N P 2.Y G 3.k.b.n.b.x.t.-.-.-.",
"G N G q.l.;.*.>.y.c.n.n.b.t.=.-.>.,.2.4.4.4.4.4.:.G M J M G :.;.N m m N N N 9.v.b.n.b.y.>.-.*.-.3.t.2.2.3.4.y.j.6.N m m N I &.P G m Y 2.P Y j.v.b.n.c.r.>.-.=.-.",
"N L E p.x.r.>.,.k.n.n.c.x.r.>.>.2.i.y.2.;.:.,.,.;.E L L L P ! P M m m L N m Q q.a.a.k.u.r.t.7.>.,.4.,.,.,.2.4.j.y.` E Y V V V P P P ! ,.P U u.c.n.n.x.y.r.>.>.>.",
"&.;.2.h.l.t.2.7.x.b.n.x.t.r.r.2.i.x.y.,.L L =.-.;.,.,.-.:.:.Y M N m G ;.H x x N *.,.t.k.b.b.h.8.4.2.-.-.-.:.4.4.i.l.y.2.-.L V ! 2.2.;.*.U -.2.i.v.b.b.x.k.4.2.4.",
"V U 2.5.;.P E >.,.y.c.c.x.y.4.r.4.4.,.>.;.-.-.=.-.2.2.2.y.u.J G E G F 6.A 6 6 m I >.r.l.n.n.u.! :.,.P V Y ;.3.>.,.4.i.i.E P ! y.i.~ P N V V L :.i.a.i.a.y.r.r.r.",
"N ! 2.E V N V =.-.,.x.b.x.y.,.,.;.;.*.*.2.;.&.I -.,.2.4.i.h.Q ! ;.J F _ D w q z m I :.h.c.c.8.N E :.V N T >.4.,.>.>.j.l.W ! r.l.l.W G J N m V E 2.4.r.r.7.2.r.y.",
":.,.3.2.>.-.=.-.>.t.x.h.,.>.-.L U ,.P L 1.;.N N L ,.,.>.3.u.h.8.P P A 8 { I.Z.q 5 b N :.y.y.:.N I -.-.,.j.y.y.k.i.4.k.c.3.3.4.l.l.;.2.i.Q N ;.,.4.r.2.>.-.>.u.v.",
"4.4.4.4.,.-.-.>.2.4.k.y.,.U L I ! 2.P N ;.E V P E 2.3.r.4.y.c.j.! W k & { ~.H.0 o x J :.2.;.P V V V I :.k.y.3.q.3.8.x.c.l.y.2.4.y.>.r.v.6.E 2.3.3.,.,.-.-.-.a.n.",
"4.4.4.4.2.>.>.2.3.4.4.4.,.P G :.2.2.I V R &.&.>.3.4.y.l.u.y.c.x.4.~ @   a T.D.0 o c :.3.:.P L &.V N N E 4.4.2.P W 3.x.c.c.i.>.>.-.-.r.x.y.7.3.3.2.;.=.&.*.-.a.n.",
"4.4.4.4.t.y.3.E ;.3.3.:.E L I -.>.;.&.V V V V ;.4.4.1.:.2.y.c.c.l.Q @ . y C.m.0 4 A ~ 2.2.U I =.I U 6.8.4.i.u.J P 3.l.c.k.i.i.a.y.P ;.y.r.>.2.>.P L V V N L q.n.",
":.2.3.3.r.k.8.Y :.y.4.;.P I -.-.&.I I L m m N ! 3.1.E N ! y.c.c.z.) v x q p a s i 8 v W ;.U I I &.;.k.k.4.j.j.P P :.u.j.t.y.l.v.l.W ! 2.,.>.2.;.L m m m m N 5.l.",
"G ! 2.,.>.>.>.*.y.l.t.3.:.;.-.*.V V m N m m m ;.:.Y N M ! y.v.x.i.h.j.g.l * r M.} : 1 v N N N N N L 7.y.4.t.2.J N N P W 2.:.! p.c.3.2.3.2.2.3.2.:.Y M m m m G P ",
"P ;.2.>.-.=.-.,.k.v.y.r.3.-.U 7.,.P P P P P T >.2.! L L T :.8.q.3.8.g.z.Z & ; g s = O c b m m M T ) ! <.4.4.3.1.W M M I ;.E N 6.k.4.3.3.4.2.~ 2.y.W M L ! Q F m ",
"3.2.2.-.&.&.>.4.h.l.t.2.2.T T j.k.t.3.2.3.2.2.2.3.3.,.-.T G G E 2.! W e.Z - ; u u = 4 l A N M N 8.j.T E 2.4.y.c.q.G L =.*.I G ~ 4.4.4.4.4.,.L ~ k.Q G :.u.l.~ m ",
"3.:.T V V V E 2.5.~ E E ;.V J l.c.x.u.4.j.8.! :.r.7.t.p.u.8.E -.;.E ^ O.S 0 r a a e 9 S O.( P N q.l.! E >.y.x.c.h.;.*.-.-.-.! 2.4.4.4.4.4.:.N J Q P G 2.i.z.) m ",
"y.1.G N N M P ,.P m N V &.L ! l.n.b.y.7.c.y.G ! 7.t.k.b.v.k.>.=.R E X.| C s f g f f s } ..( / G 7.x.r.>.,.k.b.x.i.2.;.I I ;.2.4.3.:.:.,.:.;.J N N N Y ;.y.l.1.G ",
"c.i.2.,.! M P 2.T m V &.-.;.3.x.n.v.5.Q l.p.-.*.,.l.b.b.x.r.-.=./ o.@.A.D.D.D.D.D.D.D.D.Z.| n B <.y.x.x.c.b.x.r.;.-.I N M U 2.4.2.Y N G N P ;.;.U ;.;.Y ! r.3.1.",
"l.k.i.t.2.! ;.,.L m V I L U :.j.l.h.! Y y.a.t.t.y.c.x.a.r.<.-.V D | G.R.W.W.W.W.W.W.W.W.J.Z.' n ) k.v.n.b.x.y.>.-.&.P P P ;.4.4.3.1.T M m N E ;.-.r.q.G P 2.4.4.",
"4.h.c.i.3.2.2.2.L N N N M N J 2.t.3.T G 2.a.v.v.b.v.a.>.-.-./ ^ | S.E.+X@X+X@X+X+X+X}./.E.A.{ D 9.v.b.b.v.r.-.-.&.-.,.4.2.,.2.2.8.k.q.N M m M V -.u.j.T P 2.7.r.",
"3.h.c.k.4.4.:.P I E 9.) N L ;.2.4.3.T Y y.c.n.n.c.y.,.=.=./ X. .S.W.}.:X>X>X2X2X2X>X*X}.E.D.{ ] e.v.l.p.i.,.&.V V L 8.u.! P P P ! y.8.;.-.V V V L 2.u.q.5.E q.l.",
"3.h.c.l.t.3.E N V ,.x.q.P :.3.3.3.,.T E l.b.c.c.x.>.=.I &./ ] V.H.^.}.*X>X6X7X7X7X6X:X(.J.S.Z.o.s.p.t.7.4.,.>.L N J 8.u.J M N N Y :.3.:.-.=.-.I N ! t.x.q.Q u.n.",
"4.h.c.c.k.W L I =.,.x.k.7.2.7.3.,.-.-.;.l.x.y.y.r.-.I N N v C V.H.W.W.R. X>X6X7X7X6X%XE.H.J.J...] $.9.4.r.j.h.3.,.:.,.;.N V I ;.2.3.;.G &.-.=.V N ! 4.y.i.l.v.n.",
"4.i.c.c.h.6.1.3.;.-.p.y.,.2.3.;.P I &.>.p.i.4.4.r.r.,.L B n ' Z.H.T.U.H.^.#X:X6X3X;X}.R.J.J.J.N.i ^ ! 2.4.y.a.j.8.;.-.=.P E >.,.4.r.! N V *.7.! N P :.y.l.b.j.q.",
"2.i.c.a.y.l.z.c.1.J 2.,.;.,.:.Y N N R -.2.4.3.4.y.l.i.~ l q } D.F.F.Q.}./.!.}.;X=X/.!.}./.T.M.u 0 l Y ;.2.>.,.x.7.L I ;.,.2.4.4.r.3.! N N W k.q.J N T j.c.c.5.N ",
"P :.i.t.2.:.w.c.q.;.2.2.,.3.r.q.q.q.3.,.>.>.>.2.4.7.y.` 5 : C F.J.U./.&X{.Q.~.}. XR.!..XoXQ.C.u : 8 c G -.-.>.2.>.I -.,.4.4.4.i.a.7.R N ~ p.v.l.q.! E y.u.r.-.L ",
"J ! ,.2.;.G ~ l.y.4.4.4.4.2.7.v.b.l.y.2.-.=.R >.,.-.7.` 1 $ a D.W.}..XXXoX{./.!.~.{.{.OXOX.X!.M.t 9 5 j R -.=.-.U I ;.,.4.4.4.x.l.;.I W q.c.b.n.b.t.;.r.,.-.-.-.",
":.:.>.-.U M T r.4.4.3.3.3.E W l.p.Q :.2.-.I N I -.-.*.G , # e B./.=XOX[.OX-X{.E.Q.%X-X[.[.&X=XT.d : % 6 E -.-.-.I N N P 2.4.4.k.l.T ) j.8.r.c.n.b.i.,.3.,.-.,.2.",
"4.,.-.-.*.E ! 3.4.4.4.4.3.P N 6.~ G ! 3.r.! N I >.-.-.m o # 0 B.(.<X|._.[.<X$X~./.:X&X'.'.&X>XR.g ; & @ P ;.=.=.R L ! 1.y.i.j.c.z.6.8.y.,.>.x.c.x.t.4.4.>.U 2.i.",
"2.,.-.=.*.,.3.4.4.2.2.2.,.P N N M N ! y.x.q.L ! ,.-.&.m o # e B.(.-X[.).[.<X;X+X@X>X&X`._.OX:XW.g ; & @ L R &.&.&.-.y.c.c.b.n.c.c.z.y.;.-.,.l.x.t.t.2.4.;.Y y.c.",
">.4.y.;.P ,.4.4.;.P P P P ! E I I ! 2.y.c.j.;.;.;.&.&.m o # e B.}.-X|.`.|.2X2X;X:X2X<X].].%X>XW.g ; & @ m N V V I *.4.i.i.x.c.x.y.1.;.-.I I 4.y.r.,.,.2.8.w.y.j.",
"-.r.l.:.L ;.2.:.P N N N N ! :.;.,.2.2.2.l.h.r.>.I I I m , $ y C.}.>X%X{.%X2X6X6X6X6X1X{.{.-X>XW.g > - 7 b m N N I -.2.4.4.h.x.i.2.Y L &.L Y ,.,.,.,.,.4.i.x.i.y.",
"3.4.t.>.R -.U L ! ;.U -.>.T Y :.2.2.E T 3.t.2.P N N m c q e f H. X2X>X*X:X6X7X7X7X6X4X=X=X2X>X/.A.a 9 z Y I U >.1.2.4.4.x.x.4.4.2.,.>.-.>.:.;.R P r.x.t.4.y.x.c.",
"4.4.3.-.I V N N ;.7.-.>.,.! ! 2.3.3.5.:.3.y.u.8.Q N N ^ C s A.W.$X2X2X=X>X6X7X7X7X7X4X;X:X2X2X XT.B.{ [ <.<.,.7.4.4.y.x.c.x.2.,.,.4.>.I -.>.-.-.E 4.i.4.4.4.y.i.",
"4.4.2.P m m m N -.,.>.-.;.:.2.7.3.4.k.x.y.i.c.b.h.( +.#. .M.D.W.$X>X#X~.@X2X7X7X7X6X>X(.(.=X2X}.J.C.} @.f.d.7.r.4.4.x.c.c.i.>.-.-.2.! N P >.-.,.3.4.4.>.>.2.>.-.",
"4.,.;.L m M L E ;.>.=.,.y.>.! a.y.,.k.v.l.c.n.n.x.s.P.I.Z.m.M.H.}.=XT.u J.=X7X7X7X6X+XM.m./.:X^.C.M.M.S.Y.f.8.4.4.4.l.c.x.r.-.-.-.>.P N 1.i.i.h.k.l.x.i.t.>.-.=.",
"y.2.*.L N G ! 2.;.I I ,.p.( J w.8.;.a.n.n.n.n.c.a.s.f.L.Z.g B.J.+X*XD.$ B.*X7X7X7X6X(.u y R.:X/.F.M.M.Z.P.%.<.3.4.4.h.l.2.;.R I I I V L y.c.c.c.n.c.c.z.4.;.&.I ",
"c.y.;.>.,.1.2.2.T N N N J N m J Y V q.n.n.n.b.y.>.<.<.#...M.F.Q.$X*XC.$ M.$X7X7X7X6X/.y r R.>X XR.C.} ] X.^ T ,.4.4.4.3.I N N N N N V -.2.y.y.k.c.k.3.Q U &.V N ",
"c.x.,.2.4.4.4.u.:.P T T T ! ) ) E L 7.a.a.a.u.>.L Y +.$.@.B.J.Q.$X=XT.a H.=X6X3X3X5X+XB.M./.2X+XT.A.M.| X./ E ! ,.3.4.1.G m m m N L E ;.,.4.i.i.h.y.2.E U -.U P ",
"c.i.2.4.2.2.u.c.u.3.2.3.7.h.z.v.y.-.-.-.-.;.-.P F ^ %.L.Z.g M.J.+X>X$X/.#X2X1X,X,X2X:X}.}.=X>X^.D.M.} Z.K.%.<.G P 2.4.:.P N N m N :.4.4.4.i.c.l.t.3.2.3.>.>.:.2.",
"1.! E ;.;.E 8.v.c.h.t.4.4.4.t.t.4.>.-.*.*.>.>.:.;.+.P.I.} g i C./.:X6X6X7X6X<XOXOX2X6X7X6X4X=XR.M.s f V.I.P./ M T 2.4.t.q.q.q.1.;.2.3.4.i.x.c.k.,.;.>.3.y.y.3.>.",
"m m N I *.T 6.v.n.v.i.t.4.,.-.-.>.2.>.&.&.-.4.4.2.5.s.O.g 0 u M.T.@X;X6X7X6X3X<X1X6X6X7X4X=X}.H.f r 2 C o./ J Y ! :.7.i.c.v.l.y.4.3.3.4.i.l.l.8.-.-.>.:.y.c.t.-.",
"M V I &.>.p.c.b.n.b.c.h.4.2.2.2.2.2.U M M P 2.4.7.T / J z 4 0 g D.!.#X2X2X;X;X-X;X;X>X2X=X XR.B.p : * 5 v ! 3.i.6.T q.v.c.p.Q :.3.3.3.3.~ W T G G ! ;.P 6.c.i.2.",
"L V V V E 6.u.k.l.l.l.i.4.r.t.i.q.~ U U :.1.4.,.;.L L L H Z 9 0 f F.!.@X}.~.Q.!.!.!.^. X}.R.C.u 0 < h x m ! 3.q.6.5.j.b.z.p.) ~ ;.3.4.3.1.Q G F V ;.;.G ! h.y.4.",
"&.L N M M N ! 4.t.t.t.t.r.r.y.c.y.G ! 4.k.h.2.;.-.-.*.U ! H 1 - u C.E./.!.J.J.J.J.J.T.!.~.U.B.e % 5 F W M ! :.W 5.z.v.l.y.p.l.) Y ,.r.t.h.j.T V *.*.*.G U 3.4.4.",
"=.,.8.T N E :.2.4.r.>.>.,.y.x.c.y.*.U 2.u.3.U *.-.>.-.V I G 1 - g E.~.^.^.^./.~.!./././.~.~.U.y % @ ` 6.N G Q 6.j.v.w.~ W 3.z.2.I -.r.l.c.l.W N *.*.*.! 1.2.4.2.",
"=.t.x.7.P 2.3.3.4.>.-.=.>.i.c.c.h.,.>.>.2.;.G I >.2.;.N N m o 2 D.+X@X(.+X=X;X*X=X:X%X}.(.#X Xf & 8 e.j.P G P h.c.l.:.M M ~ l.y.,.,.y.b.c.j.P L &.&.U 2.4.4.2.:.",
"-.4.c.u.<.3.3.3.,.-.=.=.-.i.c.x.h.h.y.2.2.:.*.;.2.2.! N M c o 2 B.}. X/. X@X(.E.W.}.@X(.(. X(.s * Z g.z.k.1.-.r.7.,.-.L N P t.j.x.x.c.c.y.:.-.L V M L :.4.2.U G ",
"L :.h.4.,.2.2.! =.I V V &.y.c.y.t.i.2.! ! U U ;.,.,.! G W H X - m.W./.^./.W.C.y p J.~.]./.^.R.u X Z g.n.c.t.>.2.,.-.I L M ! u.c.n.n.c.i.2.-.=.-.P P W 2.3.3.2.) ",
"N E 4.,.>.2.! N m N M M V q.l.y.,.>.P G G M M P *.-.L F 6._ O = a F.J.J.F.M.i 9 q { A.R.^.~.U.u X k e.n.c.i.4.4.,.-.L M m ~ c.c.c.c.h.>.=.&.-.-.:.2.1.2.2.3.h.z.",
";.:.2.2.,.4.! G L U N M V ! :.:.-.*.;.U G M M M V V L ;.g.0.@ * e g M.m.p 0 q A Z 9 u J.~.~.U.y & k w.c.h.y.4.4.;.G N M L 2.c.x.i.i.4.-.V V V P U P P P P P 3.h.",
"4.4.4.4.2.,.! W ,.,.P L =.V m I *.;.,.1.G F P G N N W 3.i.0.l 3 2 e r r 2 < v _ K 4 0 C.!.~.U.y & 6 8.h.4.4.2.2.:.T J L I 4.l.i.4.4.4.>.-.N N N G M M M M G ;.3.",
"4.4.4.4.2.Y ~ j.y.2.2.>.-.V m &.;.2.2.2.G Q j.y.,.2.2.2.4.1.F h , = $ & 1 x W ` A O 0 C.!.!.J.u % @ Q y.2.>.>.4.y.j.q.:.-.,.4.t.4.4.u.h.t.1.,.;.U N m M P :.2.3.",
"4.4.4.4.,.N W 8.1.;.2.;.I N m V ;.4.y.4.P ) z.x.i.4.3.3.4.,.L b h o X X j T 7.y.K O > M.J.U.D.t % @ W 4.4.>.*.>.t.h.3.;.>.>.,.,.,.2.y.i.i.y.:.U *.U P P ~ 4.4.3.",
"2.2.2.2.,.N N N N Y ,.! N m m m P 4.l.j.W ) c.n.c.y.4.4.4.2.-.! W B b H Q 1.l.l._ * - a B.B.g > . k Q 4.4.>.-.-.,.3.! G 1.>.-.-.;.,.>.>.i.h.! L *.>.2.2.4.4.3.3.",
"P P P P P ! P P E ! P L m P E N Q l.z.l.W ) c.n.c.x.i.4.4.4.,.8.i.2.;.:.2.3.l.z.` 7 < r u u t : O c ;.4.4.>.-.>.2.2.-.U 2.;.L V L P U -.,.2.U *.:.2.4.4.y.h.1.P ",
"Y G m m N ! ;.-.7.7.G M G ;.2.W 6.v.n.l.T ~ l.c.c.c.k.4.4.4.y.i.h.y.1.1.2.2.k.x.1.M @ , & $ = 3 l J 1.4.4.;.*.:.2.2.;.U :.! P M M M I *.*.*.&.*.:.2.4.t.k.c.1.M ",
"l.5.M m m N I ;.y.j.Y Y :.2.y.h.z.n.n.j.T P q.y.y.y.4.4.4.y.l.y.P P G G P ;.i.c.y.:.b + .   X v W 2.2.4.2.U N G ! 1.U G G :.h.Q G ! >.*.*.&.V N G :.y.l.c.c.~ F ",
"l.q.E Y T ~ ! I 8.a.5.) ! 8.k.b.n.b.l.y.Q ;.3.:.:.>.,.,.y.k.c.u.L V V P P I 2.y.>.P N x h k l F ! :.2.4.4.U V V :.y.Q M P 6.x.6.U :.;.*.&.&.M G 1.t.x.c.n.c.g.1.",
"7.3.2.2.t.k.6.G ;.y.l.q.T w.b.b.b.v.t.;.,.2.3.P G I -.>.i.n.c.i.>.-.-.2.! V U U J N m m G g.6.G N P 1.2.2.;.*.*.4.x.1.G :.u.c.h.2.;.*.&.&.&.M :.c.c.c.c.n.n.c.l.",
"4.:.W >.7.5.T N ! y.v.z.p.x.c.x.y.r.2.,.2.4.3.;.I &.=.;.i.c.l.i.u.4.2.2.1.;.>.:.;.P M N ;.l.u.U U :.2.,.>.-.;.>.u.c.q.:.2.y.h.h.u.U V V V V L >.y.i.x.c.c.h.3.~ ",
"4.! N W :.T G M E 8.x.n.n.n.x.t.,.-.,.4.4.2.:.-.I I &.*.u.c.y.y.l.t.1.2.4.4.4.4.3.;.L I >.k.y.-.:.4.,.;.*.I *.,.y.h.t.1.2.4.4.l.l.~ G N M L *.>.4.y.y.x.j.3.W N ",
"4.! M N W p.5.B N W l.b.n.n.x.2.-.-.,.4.4.;.G N N N N N w.c.y.2.>.U P 2.4.4.4.4.3.3.1.;.>.4.:.L ;.2.P N M N L ,.:.P G P 2.2.t.l.c.z.u.2.:.2.2.2.4.h.x.i.4.4.2.:.",
"4.! N W 6.z.j.5.I U y.x.a.i.y.,.-.I ,.3.4.;.M m m m m M ~ 3.2.>.*.G G 2.t.i.t.2.:.;.>.;.-.2.1.! 3.3.G m m m N ! P m N I ;.:.Q h.n.n.k.4.4.4.i.h.i.c.c.4.,.,.2.4.",
"3.! G 8.v.b.b.z.7.>.7.,.>.-.>.2.;.G ;.2.3.! G M m m M M M N *.-.-.L F 2.u.l.u.:.G L &.&.-.2.2.3.h.h.Q G M M M M M M P U *.I G y.n.c.k.t.4.y.x.c.c.c.x.>.=.-.>.2.",
"P :.q.8.y.v.n.b.y.,.r.,.-.>.,.4.2.;.1.2.! ~ 6.W G E P M M M &.-.>.:.2.h.k.i.:.P N M V V I 2.,.;.~ _ q.Q G P P G M M M V V N N 1.h.h.u.3.4.y.c.c.x.4.;.-.I V L ! ",
"G <.k.7.>.k.l.l.y.4.7.>.;.;.,.3.2.3.2.! N Q p.Q G 2.! F m M L >.3.4.u.k.u.1.G M N N M M N :.2.,.P Q l.h.P :.:.G M G P G M M G :.2.2.2.2.2.t.x.x.4.P V I L M N J ",
":.,.,.-.-.>.! T >.2.>.>.,.P P :.3.2.! N M N P N N :.! N m m N P 3.h.k.Q P G M M L &.I N G 2.y.l.t.3.z.h.2.3.:.G G U 3.y.G L :.2.1.P P -.-.,.x.x.4.;.&.&.L N ! 1.",
"3.,.-.R I V P L ;.,.=.,.y.,.! 2.2.,.:.! P P V P P U P F L P M ! j.c.l.W M L V V V L L I ! ,.3.q.t.u.c.c.h.2.U L P -.h.x.:.;.2.4.2.P &.&.*.>.y.y.4.4.2.E E ~ ~ ! ",
"4.,.-.L m N T >.;.-.-.r.x.u.2.7.,.>.i.l.3.:.*.;.:.G M N ! ;.G 1.c.c.l.W L I -.E L M N -.2.4.;.J ! y.c.c.x.1.G &.*.;.i.x.4.2.2.2.:.-.-.*.-.*.>.,.4.x.k.P ~ k.:.N ",
"4.y.y.2.-.I P I R -.-.,.y.:.! p.4.>.i.z.~ U *.U P M G ! 2.3.y.l.n.n.l.;.L L 1.i.q.3.! ;.>.>.U N ! t.h.h.u.:.I *.-.,.t.y.,.>.>.*.U >.>.-.>.2.y.x.x.h.y.-.;.7.;.I ",
"4.i.c.h.2.-.V N V -.=.>.2.I T l.i.;.j.k.G V &.G M m P 2.3.y.z.n.n.c.x.,.L G w.n.n.x.4.>.=.&.I N ! 4.2.4.2.:.*.*.>.4.4.2.;.*.*.V G :.,.-.>.y.c.c.c.i.,.-.*.-.=.=."
};
