/* XPM */
static char *result[] = {
/* columns rows colors chars-per-pixel */
"80 80 235 2 ",
"   c #251F1C",
".  c #1F2019",
"X  c #2A231A",
"o  c #372918",
"O  c #3C351A",
"+  c #2B2522",
"@  c #362D26",
"#  c #2B3121",
"$  c #393627",
"%  c #432C18",
"&  c #49331C",
"*  c #50361C",
"=  c #483828",
"-  c #573B25",
";  c #52312E",
":  c #693837",
">  c #3E4D2B",
",  c #48462B",
"<  c #58432B",
"1  c #49552A",
"2  c #575D2B",
"3  c #5B4834",
"4  c #4E5631",
"5  c #4F5831",
"6  c #525C32",
"7  c #595833",
"8  c #644C35",
"9  c #6B4E39",
"0  c #5F682C",
"q  c #556233",
"w  c #5C6434",
"e  c #576934",
"r  c #5B6A35",
"t  c #5E7437",
"y  c #65692F",
"u  c #616636",
"i  c #646A36",
"p  c #696738",
"a  c #6A6B39",
"s  c #736D3B",
"d  c #677739",
"f  c #76773D",
"g  c #673443",
"h  c #77374A",
"j  c #794544",
"k  c #744C48",
"l  c #767446",
"z  c #7F6965",
"x  c #913A55",
"c  c #A83E62",
"v  c #99475B",
"b  c #8D5252",
"n  c #A44F5D",
"m  c #85714C",
"M  c #976756",
"N  c #987555",
"B  c #A6735B",
"V  c #945265",
"C  c #9C5965",
"Z  c #AA4767",
"A  c #B44B6C",
"S  c #A95867",
"D  c #B7576C",
"F  c #AE5672",
"G  c #B95775",
"H  c #BD5C7C",
"J  c #956B6D",
"K  c #AA6A66",
"L  c #B7686A",
"P  c #B47767",
"I  c #B9677A",
"U  c #AE7175",
"Y  c #C55774",
"T  c #C35A74",
"R  c #C25D7B",
"E  c #C4627D",
"W  c #C86679",
"Q  c #CE6F79",
"!  c #C8767B",
"~  c #5D8639",
"^  c #69853B",
"/  c #75893D",
"(  c #6D933E",
")  c #75953F",
"_  c #798C40",
"`  c #7C9642",
"'  c #76A543",
"]  c #7AA643",
"[  c #7CAA44",
"{  c #7DB245",
"}  c #84873F",
"|  c #868B45",
" . c #859A45",
".. c #998755",
"X. c #959851",
"o. c #AD8E5B",
"O. c #82AD45",
"+. c #88A847",
"@. c #85AE48",
"#. c #9AA64C",
"$. c #83B446",
"%. c #8AB447",
"&. c #84BB47",
"*. c #8ABB47",
"=. c #87B448",
"-. c #8BB549",
";. c #8CBB49",
":. c #92B54A",
">. c #9AB64C",
",. c #93BC4A",
"<. c #9BBD4D",
"1. c #95AD52",
"2. c #9DBB51",
"3. c #A2BD4E",
"4. c #A6A953",
"5. c #A8A951",
"6. c #A8B754",
"7. c #B6BB58",
"8. c #968A74",
"9. c #B89966",
"0. c #B2906D",
"q. c #B78676",
"w. c #B3A966",
"e. c #CB8E72",
"r. c #CB9A7B",
"t. c #CBAE6B",
"y. c #86C147",
"u. c #88C147",
"i. c #8BC448",
"p. c #94C44A",
"a. c #9CC54C",
"s. c #95C94B",
"d. c #9CCB4C",
"f. c #A2C44F",
"g. c #A4CD4E",
"h. c #A8CE4F",
"j. c #A8D04F",
"k. c #A5C451",
"l. c #ABC452",
"z. c #A4CD51",
"x. c #ACCC52",
"c. c #B3CD55",
"v. c #B8CA57",
"b. c #A7D151",
"n. c #ACD251",
"m. c #B4D454",
"M. c #B9D556",
"N. c #BCD956",
"B. c #BCD458",
"V. c #BDD958",
"C. c #B8C667",
"Z. c #C3CE5A",
"A. c #C3D65A",
"S. c #C8D45C",
"D. c #C4DB5A",
"F. c #CADD5C",
"G. c #D1DE5F",
"H. c #CDE05D",
"J. c #D3E25F",
"K. c #CAC762",
"L. c #D7DA65",
"P. c #D6E460",
"I. c #DAE661",
"U. c #DEE863",
"Y. c #BD5F80",
"T. c #BD6584",
"R. c #BB7689",
"E. c #C36482",
"W. c #C66A85",
"Q. c #CB6C85",
"!. c #D46C82",
"~. c #C87789",
"^. c #CD738C",
"/. c #D7778A",
"(. c #CA7893",
"). c #CD7A93",
"_. c #D37D93",
"`. c #DA7C91",
"'. c #E07B8E",
"]. c #B3888B",
"[. c #CC858A",
"{. c #D98588",
"}. c #CA9884",
"|. c #CB879A",
" X c #DD8394",
".X c #D4839B",
"XX c #D88698",
"oX c #DD8A9C",
"OX c #D29690",
"+X c #DA9696",
"@X c #E18494",
"#X c #E18996",
"$X c #E38B9B",
"%X c #E4949C",
"&X c #CFAC8A",
"*X c #E3B19D",
"=X c #CE8CA4",
"-X c #D48CA3",
";X c #DA8DA4",
":X c #D794A4",
">X c #DC92A6",
",X c #DC95AA",
"<X c #DD9BAD",
"1X c #DC9DB3",
"2X c #E28FA1",
"3X c #E494A4",
"4X c #E598A7",
"5X c #E49BAC",
"6X c #EA9DAA",
"7X c #E39EB1",
"8X c #D8A8B4",
"9X c #E4A4AC",
"0X c #EAA1AE",
"qX c #E4A3B4",
"wX c #E5A7B7",
"eX c #EAA5B2",
"rX c #ECAAB6",
"tX c #E5ACBC",
"yX c #ECADBA",
"uX c #F1AEB8",
"iX c #EDB2BD",
"pX c #F0B4BE",
"aX c #CCCB8B",
"sX c #E8AEC1",
"dX c #E7B2C4",
"fX c #ECB4C2",
"gX c #EEBAC5",
"hX c #EDBDCA",
"jX c #F0BCC5",
"kX c #EEC3CD",
"lX c #F1C4CC",
"zX c #F2C8CF",
"xX c #EFC5D0",
"cX c #F1C7D0",
"vX c #F2CAD1",
/* pixels */
"j.,.[ p.a.[ ' ' ' ' &.$.[ c.H.d.s.j.s.i.j.p.[ ' ' ' -.f.z.b.x.b.b.b.m.J.c.[ ' ' ' =.g.j.d.[ -.g.F.U.U.H.h.s.i.u.n.J.N.j.j.j.g.s.i.i.i.y.{ ' ' ' ] ,.z.b.p.[ ,.j.",
"j.,.[ ;.s.$.;.<.,.;.z.a.,.B.H.b.d.b.b.b.d.a.<.@.' $.p.g.a.p.s.d.d.m.D.P.c.-.;.<.[ ;.f.g.p.[ -.h.F.J.H.D.A.m.g.*.d.V.j.d.j.g.,.&.$.{ { { { [ =.;.2.z.j.N.k.[ ,.j.",
"j.,.[ $.u.y.g.F.m.x.F.V.b.D.P.m.b.n.V.D.d.b.F.2.O.a.g.g.-.{ y.i.p.V.I.I.K.}.&XK.1.1.7.3.;.[ *.g.D.G.m.D.J.U.D.:.;.h.d.s.g.p.[ [ [ ' ' ' ' [ d.V.H.m.m.H.c.O.p.z.",
"j.d.p.$.{ [ p.m.m.z.k.a.b.H.P.H.D.H.m.b.i.b.P.m.a.g.j.g.p.&.y.i.i.V.P.S.t.OX%XOX&X}./.w.p.&.$.,.Z.G.v.B.G.U.F.l.a.g.g.d.g.g.,.p.;.] ' ' ' { c.D.N.m.j.N.k.&.u.d.",
"a.f.a.-.[ [ *.g.f.p.[ -.j.F.I.J.J.I.m.s.u.g.H.m.g.g.f.d.i.&.&.&.;.Z.t.v.e.#X@X0XuX4X3Xt.g.f.;.@.7.e.e.}.r.L.K.K.j.j.j.j.g.g.m.g.a.$.O.=.O.-.F.D.g.g.j.j.g.s.i.&.",
"$.[ $.,.a.u.p.g.;.[ ] $.h.F.J.N.D.I.P.V.-.,.b.d.s.g.a.O.[ [ [ [ O.Z.9X}.! 0XyXkXfXeX$Xr.v.Z.w.e.w.+X9XeX6X$Xe.! o.g.j.f.%.<.F.j.p.d.n.A.d.a.F.v.%.p.j.j.m.D.p.' ",
"' ' ' $.p.p.d.g.p.%.-.p.g.H.J.m.N.I.U.F.<.p.g.d.s.j.,.] ' ) X.0.+.2.&XiX5XeXlXzXfXyXrX@Xe.L e.4X+XiXiXyXuX0X@X'.P 6.z.a.O.-.x.,.;.d.m.D.f.p.F.m.$.i.g.m.H.P.k.;.",
"] ' ' [ =.a.g.g.g.g.j.j.j.H.H.m.M.P.I.G.n.g.h.b.g.g.p.O.] +.w.,XX. .K oXwXsXvXlXgX6X$X`.e.$XpXuXpXlXhXgXjXjXeX@X/.o.z.a.O.[ [ [ $.a.z.z.-.-.D.N.p.p.g.H.I.P.m.g.",
",.;.$.f.x.,.p.g.j.m.D.H.D.N.b.s.g.b.m.N.n.b.b.x.7.>.3.l.>.+.&X9X0.X.A H 2XfXhXjXfX0XW.Y r.6XpXlXlXlXjXvXvXlXyXyX'.W X.,.,.;.$.;.;.%.p.g.%.@.c.N.V.V.D.I.H.n.d.s.",
"d.p.i.V.F.-.-.d.j.N.J.U.J.n.i.i.y.s.d.j.j.j.n.w.+X0.9.t.9.0.{.4X;X[.(.T.(.7XsXeXsXsX6XR !.3XuXpXjXjXlXzXlXjXgXfX6XQ L X.,.p.i.p.p.[ %.g.%.O.h.D.I.U.I.J.n.i.i.i.",
"[ [ O.c.F.a.u.s.N.J.U.U.P.b.i.i.p.d.g.j.j.j.h.t.3X{.{.{.$XrX5XgXgXgX,XT.G `.sXqXfX6X$XE.Q '.3X6X6XpXuXzXlXuXgXjX0X@X@XL +.$.u.&.O.' -.d.=.@.A.J.U.U.H.b.s.i.y.i.",
"{ $.;.B.H.g.s.d.N.U.U.J.H.b.s.s.j.M.m.g.s.p.f.e.%XiXyXgXyXwX2XtXkXkX7X,XY.T.;X7X7XW Y /.$X'.@X$X0X4X$X$X3XiXlXgXeX4X@X{.X.{ $.-.-.-.,.d.&.;.M.J.U.U.H.m.b.s.s.s.",
"&.p.b.D.F.b.g.h.H.J.U.H.n.b.b.b.N.H.m.d.@.@.2.r.#XfXhXgXyXwXW.-XfXhXpX7X1X=XG (.Y.Y.'.$X3XuXuXfXpX0X6X@X@XjXlXlX6X3XyX'.o.+.+.<.z.f.d.u.&.u.g.N.J.I.I.J.D.j.j.j.",
"{ ;.g.f.<.*.;.s.g.m.J.J.H.n.j.b.b.b.d.p.w.9.}.:X5X-X=X1X5X`.R ,XtXrXrX7X7XsX2X^.A E.7XuXuXvXzXlXpXjXfXeX5XiXvXvXjXjXjX%XW q.w.c.M.>.$.{ { { %.a.N.V.V.V.m.b.j.j.",
"[ ,.f.;.{ [ { i.i.d.H.J.H.m.d.d.p.p.u.,.}.oX5XsX>XW.XX:XeXXXA R  X6X7X;X^.;X-X5X/.`.rXfXjXvXvXvXjXjXjXfX3XrXvXvXvXlXyX#X$X+Xe.H.F.:.O.=.[ ] { ;.d.j.b.d.g.g.b.m.",
"d.d.j.g.s.i.y.i.s.n.J.D.d.s.i.$.*.d.-.%.9.{.eXyXqXR oX%X6XfX,XE.E.H (.-X^.5X`.qXsX`.yXvXvXvXvXvXvXlXcXcXwX3XjXvXjXpXyX6X6X9Xr.A.F.s.z.M.>.[ p.g.j.b.b.s.i.s.m.P.",
"j.j.j.j.g.i.i.s.g.j.D.m.d.u.$.$.p.g.;.X.OX3XyXtX(.Y !.@XyXlXjXfX7XE.Y.E.2X$XR ^.1X1XgXcXvXvXvXvXvXvXjXfXfXwX7XjXlXjXhXyX2X'.e.n.m.s.n.J.x.;.g.g.g.g.s.u.i.i.V.U.",
"j.j.j.j.g.s.s.g.g.j.j.j.d.-.O.s.g.3.o.! @X$X4X5XY.G Q.sXcXvXvXvXvXiX<X5XfXyX$XR E.gXhXkXvXvXvXvXlXgXjXhXwXXX2XjXvXlXxXxXfX$Xr.w.5.i.b.H.M.g.j.j.g.s.u.u.u.i.V.U.",
"j.j.j.j.n.m.g.,.a.g.j.a.;.%.$.s.p.o.~.3X3X3X3XqXtXW.!.7XhXxXvXvXvXvXvXvXvXxXuX`.E.,XvXhXvXzXlXvXvXlXhXgX7XH oXvXvXvXvXjXyX_.R T q.+.p.m.g.s.g.a.-.{ { { { $.B.U.",
"a.g.h.g.b.D.x.$.a.m.j.a.%.&.y.u.*.M H ).qX,X).^.,XE.Y 4XwXyXgXvXvXvXcXvXvXvXfX@XE.W.0XqXfXgXrXcXcXyXqXyX-XH -XlXzXlXxXgXfX5XE o.t.1.,.z.d.s.g.p.O.[ ' ' ' ] f.S.",
"O.;.g.s.p.s.i.i.m.F.n.g.d.p.i.u.&.| A Z E.XXE XX1X^.^.`. X3XgXvXvXvXvXvXcXcXgX7XQ.^.E.!.;XhX6XfXfX7X).(.Y.(._.eXvXvXdXwX4XQ.K K.I.x.z.z.g.g.g.g.a.$.] ' ' ' O.%.",
"%.a.g.s.i.i.i.d.D.J.m.j.g.i.;.g.C.}.oXW x n F <X|.Y W R 3XhXlXlXvXvXvXvXkXhXhX1XR !.(.W.E.-X-XQ.;XsXhXqX.XT.(.>XgXvXhX-X^.T S }.t.c.b.b.j.g.a.g.m.,.[ $.:.,.@.' ",
"h.g.d.p.y.y.s.b.D.H.n.g.g.-.-.S.aX*X4X<X0.q.wXhX,XE.A Y @XsXqXfXjXlXjXgXfX;XqXI H ^.tXtXG H H G W.,XyXgX1XH (..XdXkX8XT./.L ..o.9.k.h.h.j.a.O.<.S.<.O.a.M.F.<.' ",
"h.a.;.$.{ { ;.g.f.<.-.*.p.$.%.F.U.*X$X%X+X+XiXkXfX3X^.E.!.-X5X4XgXlXgXfXsX/.C J ).H <XkX.XQ.H |.>XW.^.gXgX;XR XX.X-X-XQ.Y K K r.w.9.t.k.h.d.O.=.<.@.O.f.D.G.<.' ",
"m.f.O.O.[ ] -.g.%.' ' { y.$.;.J.L.+X%XuXgXlXxXvXxXlXeXR G H .X XqX0XfXsXsX2Xh J _.D <XvXkXtX1X.X3X(.E.dXvXdXY.R E.H _.W T ..t.2XOX+X[.o.p.<.+.[ [ [ @.p.m.F.f.O.",
"J.N.g.a.,.[ -.d.-.' &.y.u.s.l.t.t.%XrXuXhXvXvXvXjX;X^.H -XW Y  X7X/.2XyXqXXX[.+X~.[.kXpX%XrXlXvXlX(.(.sXhXsX,X_.sX.XY A c j J <X4X^.H C ] $.p.s.&.p.p.=.,.n.g.a.",
"D.D.M.n.g.;.,.g.&.' { { $.*.a.r.{.%X%X0XvXvXvXhXkX-XA G I b v ;X/.E.(.;X].L 4XkXiXgXvXiX9XdXkXkXgX_.Y ^.tXdX4X!.>X-XY v ; * A XXY.Z M ` ) [ ;.i.i.b.c.O.%.f.b.b.",
"j.D.J.N.h.g.g.g.-.[ [ [ ' ] %.e.qX5XfXlXcXvXvXfXgXqX).c V ].; R.Q.tX-XI +XOXiXgXkXzXvXkXgXfXtX<XsX5XE.Y.-X-X,XT.G G h - % p S P B o.7.[ [ ] ] { u.N.D.-.;.g.x.b.",
"j.D.J.D.j.j.a.%.$.*.k.<.[ =.3.r.XX!.:X,XdXkXxXhX7X^.L 3 , z @ b _.jXfX$XoX3XtXiXkXgXzXhXsX2X.XG E.T.D .XXXV T.F n n j f m | #.#.4.7.x.,.u.{ &.{ $.z.M.c.k.;.x.F.",
"j.N.J.H.n.g.;.{ { d.H.B.-.p.5.0.P [.(.:X,X;XdXtXR G J 8.$ = 8 ! 6XgXrX'./.^._.4X X1XwX1X(.T E.F h A W.4XH F R.L M ! %X0.Q ! o.e.o.5.z.a.i.i.i.{ [ ,.m.H.m.>.B.U.",
"j.D.J.J.D.:.$.&.y.d.H.D.k.g.h.k.d.w.H ~.Z F =X).A W.J 8X8.b M [.rXgXwXR n x Y @XT.I F c h b E F 9 P oXqXY `.3X$X6X%XeX6X3XoX;X`.q.5.,.$.y.i.i.{ [ ,.j.n.M.F.P.U.",
"j.N.J.J.D.k.f.g.s.u.M.m.d.g.g.p.&.=...=XR.3 S G R R.J <X+X[.V R.sX_.E.Z : b Y E T.K G U - ; : h b h F R.G @XuXfXjXuXlXlXlXfX0XoXe.7.,.[ { &.g.,.[ -.a.m.F.I.A.m.",
"g.N.J.D.m.F.G.G.<.=.g.d.p.d.d.=.{ { 1.aXw.3 L  X4X{.k U /.wX8X9X;XT.A =Xz 4 Z T.Q.>XyX9Xk o < ..OX8Xq.: XXtXtXuXjXlXlXlXvXlXuX3X! 9.<.] [ >.F.c.O.[ -.A.P.J.k.[ ",
"%.f.m.n.g.f.c.J.c.p.g.g.d.g.h.c.C.b.z.z.i.l |.yXlXlXR.D S R.:XT.Z F .XtX].k |.|.eXlXjXuXU : ! %X#X4XK b ~.yXyXiXjXvXzXjXzXlXjXjXXX! 4.] 2.B.P.F.c.,.;.m.m.n.i.$.",
"%.%.d.g.a.[ <.F.N.j.j.j.j.f.x.J.P.S.c.z.X.N |.gXkXtX|.I U Y G K j : ].sX(.(.].8XjXgX6X4X_.H 5XjXrX6X#X3X$X6XfXjXjXlXvXzXjXjXjXfX>XD X.-.c.J.I.U.U.n.p.b.d.i.u.i.",
"g.s.s.i.&.[ ,.j.j.j.j.j.j.,.:.F.B.,.a.z.i.m ~.rX7XU : J OXP P k @ - b _.(.j : k XXpX.XG A E.%X4X3XpXjXpX0X6XpXpXjXcXvXzXgXjXyXsXtXE.X.A.b.b.J.U.P.m.g.z.d.u.d.g.",
"h.d.i.i.*.*.,.g.j.j.j.j.g.-.O.k.2.[ <.b.b...L @XI g b M q.r.}.U C C - b _.I b k Y Y c Z .XsXiXeXrXzXzXlXpXgX6XuXjXjXgXpXeXeXtXfX,XG 4.c.d.d.H.J.H.m.j.j.s.&.h.D.",
"g.d.s.y.u.g.g.j.j.g.g.g.d.-.] [ [ [ ,.m.H.v.0.$XXXR..XT ,X5XqXfXqX^.k = F E.Z K M : o F 4XgXzXvXzXvXvXvXlXlXyXuXlXjXjXiXyX5X$X_.{.T o.p.i.s.F.F.n.b.j.j.p.-.c.J.",
"s.g.m.p.$.d.j.g.p.-.$.-.*.,.i.$.&.p.d.m.S.o.q.|.qX_.H E.qXfXlXvXjXeXOXj : 9 < ....9 U >XqXuXvXvXvXvXvXvXvXvXrX#XuXrXgXeXeX#XY D D S ..u.$.&.n.m.b.d.d.g.x.c.M.N.",
"p.b.D.a.$.s.g.a.-.[ [ [ [ ,.a.p.d.z.z.k.K.7.P .X(.Z H 5XpXjXgXjXlXfX0XP b C M /.K b @XeXuXjXvXvXvXvXvXvXlXlX0X3X3X2X6X5XXXW D B o. .$.u.$.$.d.g.d.d.d.g.N.H.N.m.",
"g.j.m.p.u.s.&.{ ,.s.;.i.a.;.$.d.g.g.;.-.x.l.K L M S <XeXjXeXrXiXfXfX7X~.~.4X$X3X(.Y '.0XvXvXvXvXvXvXvXvXvXjXyX4X`.Q.`.oXR D o.l.j.d.s.i.p.a.s.&.$.n.H.n.j.m.H.J.",
"j.j.g.i.$.{ { [ ,.b.i.i.s.,.,.f.b.g.f.f.g.n.7.5.>.0.$X#X/.@X>XtX4X#XE D T.7X>X^.R R 6XjXjXzXvXvXvXvXvXzXlXfXfXeX!.(.R T T P g.d.d.j.p.&.p.s.u.u.,.j.N.g.g.j.n.N.",
"j.j.g.-.' ' ' [ ;.d.s.i.s.d.f.b.h.b.D.H.m.A.J.J.7.0.XX%X X-XH E Y Y I ).W.;XY.c Y `.6XyXuXlXzXvXvXlXlXlXjXfXfXtX/.v x o.t.7.p.i.s.d.p.[ &.p.s.s.g.n.j.s.d.d.s.i.",
"j.d.s.{ ' ] O.;.p.s.i.d.m.a.p.B.m.g.V.I.F.G.I.G.9.q.:X<XQ.G c Z x x ).).c h g h E 6XwXyXuXpXjXjXlXpXgXjXuXrX$X3X}...8 s x.j.i.y.u.p.&.[ f.N.m.D.H.F.H.D.n.s.s.y.",
"m.g.i.$.O.O.,.g.p.&.y.d.B.<.@.c.x.p.N.U.U.U.U.G.7.P /.Q Z B m b @ 8 b n h X @ ; C 4XwXrXrXuXpXuXjXpXuXuXrXyXoX/.e.5.#.} 3.p.&.&.&.&.{ %.m.J.J.J.J.J.J.F.j.i.u.&.",
"J.m.i.s.d.a.g.g.;.' ' { @.[ [ @.O.O.m.U.U.U.J.m.>.N B o.o.D.g.O.1 & - ; b C 3 b !.7XeX3XeXgXjXgXuXrXuXyX4X5X3X!.L 5.j.g.%.[ [ [ [ ' { u.g.m.m.D.J.H.x.,.*.y.$.] ",
"J.H.d.g.j.j.j.M.a.-.-.-.-.,.f.2.,.$.z.V.N.N.N.a.%.$.*.h.A.D.m.j.:.2 % & b Z k x x !..X5X0XeXpXiXeXeX6X3XqXW.Y B B 3.j.a.O.' ' ' ' %.;.p.g.j.N.N.D.m.g.;.&.y.*.%.",
"J.D.h.g.g.g.M.J.V.z.b.k.z.V.G.G.m.i.i.i.i.p.i.-.[ [ *.h.n.m.J.J.G.7.2 o o & = o : c F $X!.Q.4X6X4X5X$X/.oXA Z | +.g.g.f.%.[ [ ' $.a.j.j.j.m.J.H.j.h.g.g.d.p.d.g.",
"a.,.-.p.p.;.x.P.G.D.j.j.j.j.n.n.g.d.i.u.i.i.s.s.,.,.a.h.N.H.J.U.J.M.$.1 o o * X = - v v h S Q oX!.E.2X_.T T M  .@.g.j.j.c.v.c.f.p.g.j.j.N.H.J.D.d.d.d.g.n.N.g.d.",
"] ' [ $.;.-.x.P.U.J.N.j.j.d.i.i.d.g.p.&.y.s.g.j.h.g.g.g.H.J.J.J.H.g.&.^ o X % o * y ..m #.P R :XE.Z (.Q.Z Z M +.:.f.x.N.J.J.F.m.j.j.j.j.N.F.F.j.i.i.i.a.N.J.n.i.",
"] { &.u.s.B.J.I.U.I.J.D.b.b.g.g.h.g.*.[ ] %.j.j.g.%.%.s.D.J.N.m.n.d.&.' 1 X o % - y ] ] $.4.D ! K M K M M N 6.A.x.-.c.J.I.Z.,.f.g.j.j.g.>.:.-.+.[ ,.d.%.f.J.N.g.",
"{ $.{ { ;.x.B.D.F.F.H.N.j.b.n.N.j.<.*.*.p.f.j.g.p.$.&.u.n.D.j.j.j.j.g.$.> . X & & 2 ' O.:.<.#.X. .] +.+.[ ,.h.c.l.k.A.I.F.m.f.<.a.g.j.j.g.>.+.[ $.,.p.O.,.D.m.j.",
"y.&.[ [ ] [ ,.h.n.n.n.j.j.j.m.J.m.O.,.j.D.D.g.p.u.u.u.u.d.j.j.j.j.D.D.f.2 X O < & 1 ] ,.h.h.,.[ ] +.a.,.] ,.a.-.l.G.P.F.m.N.F.3.$.d.x.m.D.S.%.[ y.i.&.$.*.h.j.j.",
"y.d.x.;.[ ;.a.h.j.j.s.s.s.m.J.J.m.u.i.d.m.h.*.u.i.s.*.$.*.s.s.d.j.g.k.B.^ & - y & 2 :.g.j.j.p.] ] @.B.k.[ O.,.l.A.P.v.<.%.x.F.x.&.i.b.D.J.D.:.$.y.y.u.,.a.h.j.j.",
"y.n.H.k.=.d.b.h.j.s.i.i.i.N.J.J.N.d.s.p.g.p.O.*.s.g.p.[ $.y.&.u.a.*.%.B.` * 9 9 < 0 g.j.n.j.,.] +.2.F.B.:.O.-.D.J.F.a.[ ' <.F.m.d.d.N.J.J.A.;.$.&.y.u.g.h.h.g.f.",
"i.n.J.m.f.g.b.h.d.i.i.i.i.N.J.H.D.D.m.g.g.a.u.p.g.j.p.] [ [ [ [ O.$.$.,.) 1 9 - 9 2 3.D.F.x.,.O.k.G.I.P.A.d.i.x.j.d.i.$.[ -.n.D.H.H.J.J.m.s.u.$.[ [ $.d.h.g.*.[ ",
"$.d.D.j.d.g.g.,.y.{ { &.&.m.J.m.n.N.g.p.,.,.*.i.d.d.%.O.:.<.] ] O.$.' ) ~ , 7 - 9 & / v.v. .:.>.c.D.J.U.J.m.d.g.d.i.&.$.' :.M.J.U.U.J.V.d.i.y.u.%.%.%.g.j.j.f.3.",
"[ ;.g.d.s.g.,.[ [ { ' ' { c.F.m.d.p.&.] O.] ] %.u.i.$.] 6.6.+./ +.] ' t > & 8 * 8 = e  .f 2 d #.g.g.F.U.J.N.g.h.s.u.$.] ' a.J.J.J.J.D.s.i.y.y.p.g.g.g.g.g.g.D.H.",
",.a.g.g.d.j.,.[ &.%.[ [ $.,.a.p.p.u.*.,.O.] ] ] { { &.+.f f / i ^ ^ ( e # o 8 * < 8 s | f f p  .+.+.A.D.M.h.h.h.p.$.] ] { g.J.H.N.N.j.i.{ { { $.%.%.%.%.%.%.h.A.",
"j.j.j.j.g.d.,.:.a.d.%.$.u.{ [ &.i.i.g.a.O.+.%.O.O.] /  .f | / q 2 w e 6 # o 8 * - < p s s | f d e r | } /  .d.g.a.-.@.=.*.j.H.N.j.j.j.s.u.O.[ [ [ [ ] ' ] $.p.j.",
"j.j.j.j.d.%.<.A.m.g.g.p.u.{ [ y.p.g.g.g.O.3.Z.l.%.` d f i / d 6 5 5 5 4 # , 8 & & & 4 p u q q q 6 r  .a a ) *.d.m.D.h.a.u.d.n.j.j.j.m.D.n.d.f.p.&.[ ] ] %.f.g.h.",
"j.j.j.j.d.[ -.c.f.p.g.p.{ [ ' { p.h.m.n.+.3.F.v.f ` ` d u u q 6 6 5 6 6 O 7 - % % * $ w q 6 6 6 6 r ) i i ^ d %.h.A.h.,.s.d.d.d.d.j.m.N.D.m.a.i.u.*.%.%.p.j.h.h.",
"g.g.g.g.a.O.[ [ [ =.a.,.[ [ ' ' *.j.F.F.%.>.5.#.| f y i i w q q w w q 6 $ 8 * % o % @ 1 q 6 6 4 q w i i 0 6 6 ^  .f.;.%.d.d.u.u.i.d.d.s.M.A.%.$.i.s.g.g.h.j.h.g.",
"-.$.-.-.-.,.;.$.*.,.;.O.' $.;.[ >.D.J.S.%. .f f 5.f p i i u w i a i 0 , # % o % o o X , q 6 6 5 2 w u i i ( d q / g.p.*.g.p.$.{ { %.*.i.d.g.*.*.d.g.j.j.m.D.f.:.",
"%.O.' ' [ ,.p.i.g.z.O.] O.p.g.:.l.I.U.S.+.i l f s f a i u u i p a i 4 @ @ O # o %   X 4 6 5 5 6 7 w w i i / d e a ) %.u.s.,.%.] ] O.$.y.i.y.y.i.g.g.h.m.D.J.3.] ",
"F.k.[ ' ' [ &.i.m.A.=.$.p.g.n.D.J.I.U.S./ 0 ) / p p i u u i a a 3 , = = o o = $ X   @ = 6 6 6 q u r u u r q 5 5 u d  .$.O.3.M.>.O.,.p.i.y.y.{ [ O.p.n.F.J.J.f.] ",
"F.c.%.*.-.<.,.;.x.D.k.2.<.n.D.I.U.U.H.m.+. .d i 7 w w w p s s 3 = = = @ o   o ; @ o + + $ 7 w 7 q 7 i u u 2 6 6 d 3.:.O.%.x.G.x.%.s.s.i.y.y.' %.f.n.H.J.U.U.Z.3.",
"j.h.f.g.x.D.x.[ p.m.H.c.-.v.I.I.I.J.b.p.%.d f ^ 6 2 q e a s 7 $ @ @ +   + + X = @ + X   + 7 p 6 6 6 u u u q r r i #.3.+.f.m.J.N.g.p.y.y.y.{ [ <.J.J.J.J.U.J.J.F.",
"j.a.;.a.x.k.-.[ ,.m.P.F.m.H.J.H.m.b.d.d.,.d d i 6 q q q a s p , @ = ; $ @ = +   @ = $ @ # 7 a q 7 w u w e 6 ^ ) / 7.h.p.g.m.N.D.m.*.[ { { { { s.M.N.D.J.J.N.k.f.",
"j.,.[ -.a.-.O.] ;.x.H.U.U.U.H.n.d.i.d.j.g.+./ r 5 q e q i s p p 7 7 , 7 4 3 = $ < 7 7 6 4 p p q e u w q 6 6 t f | D.c.a.g.j.j.F.F.>.%.[ { $.u.d.j.j.M.H.D.h.,.O.",
"j.,.[ [ ,.c.k.] [ ;.F.U.U.U.H.g.i.i.d.j.h.,.d 6 ^ e t d a s p w q 7 7 w w u 7 7 7 u w q q p w 6 w w 6 6 5 q ^ ) ) %.O.%.g.g.j.F.J.J.M.g.d.g.g.g.j.D.H.N.j.j.g.a.",
"j.,.[ :.l.L.A.k.-.;.M.D.V.V.m.d.i.&.a.j.h.,.) ( _ 5 q r w u u q q 6 6 w u a p u w q w q q u w 7 u p 6 4 5 ^ ] :.%.] ] $.s.a.a.N.U.U.F.j.j.j.M.N.D.J.H.j.d.d.g.j.",
"g.,.-.x.P.I.I.H.b.i.b.z.s.s.s.g.,.$.,.h.g.<.O.] ~ _ ^ e e e e q 2 6 6 w a s p w 5 q q q 2 u w u p p 7 d e q ( ] ] ] $.u.u.$.$.v.J.J.F.j.j.m.H.P.P.J.H.s.u.u.d.g.",
"-.p.x.c.m.P.U.P.M.d.g.d.i.s.d.g.g.,.g.g.,.<.l.:.' ' d q d e q q i w w a a a w 6 5 5 5 5 6 w d d w u a / 0 y ) ] ] ] [ { { [ [ f.D.D.N.j.b.m.J.J.N.j.d.i.&.{ &.%.",
"[ f.A.z.s.D.F.F.m.g.g.d.p.p.f.g.g.g.g.,.[ ,.B.>.[ a.-./ _ ~ t q / a f s f d q 4 t t q 5 q d d d d a s f d / +.[ [ [ O.O.] ] O.p.g.g.g.g.b.n.H.H.j.*.{ &.$.' [ @.",
"a.d.d.i.i.s.,.-.d.g.s.s.d.;.&.f.j.g.;.[ ] [ @.O.{ d.<.] ' ' ( ` >.|  .2 d ^ 6 6 t q t d d +.f | | +.f #. . .f.O.O.;.c.m.O.%.a.g.g.%.$.i.i.d.H.H.j.p.y.y.$.O.;.f.",
"b.d.y.&.{ { $.*.p.s.i.d.m.d.;.g.g.s.a.<.%.=.O.$.%.;.%.[ { $.] -.B.7.#.i t q e 6 ^ ^ ^ [ -.a.a.k.<.f.#.Z.M.f.*.%.$.i.N.H.p.p.j.j.g.$.$.y.y.s.m.m.j.j.g.&.;.3.<.,.",
"b.d.s.$.[ { $.a.p.i.i.b.H.m.d.x.g.s.M.F.h.s.u.p.p.O.] O.p.a.@.k.J.J.B.+.] [ ] ^ ' ' ] ,.g.g.,.@.,.m.F.J.G.3.$.&.y.s.N.H.n.g.g.g.g.i.i.i.y.i.s.d.j.D.N.-.<.D.a.[ ",
"b.m.m.f.u.&.$.&.u.i.i.d.m.f.,.B.n.p.N.F.<.&.*.*.%.] O.,.g.j.c.S.I.U.H.p.$.$.k.N.m.f.p.p.s.s.&.[ ,.j.N.D.M.s.&.u.i.d.n.m.g.s.s.;.%.s.s.i.s.g.m.N.H.D.m.&.p.z.i.$.",
"j.D.J.D.g.i.$.[ { i.y.s.g.&.-.F.V.d.N.F.%.{ y.$.] ] -.g.h.m.J.U.U.U.H.d.$.O.v.U.U.F.j.s.i.i.$.[ p.h.j.j.g.d.u.u.s.j.j.j.i.u.u.{ O.a.s.p.d.m.J.U.J.V.g.s.i.i.i.i."
};
